!!!COM: Beethoven, Ludwig van
!!!CDT: 1770///-1827///
!!!OTL: Piano Sonata no. 21 in C major
!!!OTP: Waldstein
!!!ODT: 1803///-1804///
!!!ODE: Graf Ferdinand von Waldstein
!!!OPS: 53
!!!OMV: 1
!!!OMD: Allegro con brio
**kern	**kern	**dynam
*staff2	*staff1	*staff1/2
*Ipiano	*Ipiano	*Ipiano
=1-	=1-	=1-
*clefF4	*clefF4	*clefF4
*k[]	*k[]	*k[]
*C:	*C:	*C:
*M4/4	*M4/4	*M4/4
*MM144	*MM144	*MM144
8CCL	8r	.
8CC 8GG	8C 8EL	pp
8CC 8GG	8C 8E	.
8CC 8GGJ	8C 8EJ	.
8CC 8GGL	8C 8EL	.
8CC 8GG	8C 8E	.
8CC 8GG	8C 8E	.
8CC 8GGJ	8C 8EJ	.
=2	=2	=2
8CC 8GGL	8C 8EL	.
8CC 8GG	8C 8E	.
8CC 8GG	8C 8E	.
8CC 8GGJ	8C 8EJ	.
8CC 8GGL	8C 8EL	.
8CC 8GG	8C 8E	.
8CC 8AA	8D 8F#	.
8CC 8AAJ	8D 8F#J	.
=3!|:	=3!|:	=3!|:
8BBB 8GGL	4.D (4.G	.
8BBB 8GG	.	.
8BBB 8GG	.	.
8BBB 8GGJ	16BLL	.
.	16AJJ	.
8BBB 8GGL	8r	.
8BBB 8GG	8G')	.
8BBB 8GG	4r	.
8BBB 8GGJ	.	.
*	*clefG2	*clefG2
=4	=4	=4
8BBB 8GGL	([4ddd	.
8BBB 8GG	.	.
8BBB 8GG	16dddLL]	.
.	16ccc	.
8BBB 8GGJ	16bb	.
.	16aaJJ	.
8BBB 8GGL	4gg')	.
8BBB 8GG	.	.
8BBB 8GG	4r	.
8BBB 8GGJ	.	.
*	*clefF4	*clefF4
=5	=5	=5
8BBB- 8FFL	8BB- 8DL	pp
8BBB- 8FF	8BB- 8D	.
8BBB- 8FF	8BB- 8D	.
8BBB- 8FFJ	8BB- 8DJ	.
8BBB- 8FFL	8BB- 8DL	.
8BBB- 8FF	8BB- 8D	.
8BBB- 8FF	8BB- 8D	.
8BBB- 8FFJ	8BB- 8DJ	.
=6	=6	=6
8BBB- 8FFL	8BB- 8DL	.
8BBB- 8FF	8BB- 8D	.
8BBB- 8FF	8BB- 8D	.
8BBB- 8FFJ	8BB- 8DJ	.
8BBB- 8FFL	8BB- 8DL	.
8BBB- 8FF	8BB- 8D	.
8BBB- 8GG	8C 8E	.
8BBB- 8GGJ	8C 8EJ	.
=7	=7	=7
8AAA 8FFL	4.C (4.F	.
8AAA 8FF	.	.
8AAA 8FF	.	.
8AAA 8FFJ	16ALL	.
.	16GJJ	.
8AAA 8FFL	8r	.
8AAA 8FF	4r	.
8AAA 8FF	.	.
8AAA 8FFJ	8F')	.
*	*clefG2	*clefG2
=8	=8	=8
8AAA- 8FFL	([4ccc)	.
8AAA- 8FF	.	.
8AAA- 8FF	16cccLL]	.
.	16bb-	.
8AAA- 8FFJ	16aa-	.
.	16ggJJ	.
8AAA- 8FFL	4ff')	.
8AAA- 8FF	.	.
8AAA- 8FF	4r	.
8AAA- 8FFJ	.	.
=9	=9	=9
8GGG 8FFL	2.fff	.
8GGG 8FF	.	.
8GGG 8FF	.	.
8GGG 8FFJ	.	.
8GGG 8FFL	.	.
8GGG 8FF	.	.
8AAA- 8FF	16fffLL	.
.	16eee-	.
8AAA- 8FFJ	16ddd	.
.	16cccJJ	.
=10	=10	=10
8GGG 8FFL	16bbLL	.
.	16ccc	.
8GGG 8FF	16ddd	.
.	16eee-JJ	.
8AAA- 8FF	16fffLL	.
.	16eee-	.
8AAA- 8FFJ	16ddd	.
.	16cccJJ	.
8GGG 8FFL	16bbLL	.
.	16ccc	.
8GGG 8FF	16ddd	.
.	16eee-JJ	.
8AAA- 8FF	16fffLL	.
.	16eee-	.
8AAA- 8FFJ	16ddd	.
.	16cccJJ	.
=11	=11	=11
4GGG 4FF	16bbLL	f
.	16ccc	.
.	16ddd	.
.	16eee-JJ	.
[2GG [2G	16fffLL	.
.	16eee-	.
.	16ddd	.
.	16cccJJ	.
.	16bbLL	.
.	16aa-	.
.	16gg	.
.	16ffJJ	.
8GG] (8GL]	16ee-LL	.
.	16dd	.
16AL	16cc	.
16BJJ	16bJJ	.
=12	=12	=12
8c'')	8cc	.
8r	8r	.
8GG 8G	8g	.
8r	8r	.
8EE- 8E-	8e-	.
8r	8r	.
8CC 8C	8c	.
8r	8r	.
=13	=13	=13
1GGG; 1GG;	1G;	p
=14	=14	=14
8CC 8C	16eLL	pp
.	16c	.
16CLL	16e	.
16GJJ	16cJJ	.
16CLL	16eLL	.
16G	16c	.
16C	16e	.
16GJJ	16cJJ	.
16CLL	16eLL	.
16G	16c	.
16C	16e	.
16GJJ	16cJJ	.
16CLL	16eLL	.
16G	16c	.
16C	16e	.
16GJJ	16cJJ	.
=15	=15	=15
16CLL	16eLL	.
16G	16c	.
16C	16e	.
16GJJ	16cJJ	.
16CLL	16eLL	.
16G	16c	.
16C	16e	.
16GJJ	16cJJ	.
16CLL	16eLL	.
16G	16c	.
16C	16e	.
16GJJ	16cJJ	.
16CLL	16f#LL	.
16A	16d	.
16C	16f#	.
16AJJ	16dJJ	.
=16	=16	=16
16BB 16DLL	(4.g	.
16G	.	.
16BB 16D	.	.
16GJJ	.	.
16BB 16DLL	.	.
16G	.	.
16BB 16D	16bLL	.
16GJJ	16aJJ	.
16BB 16DLL	8g')	.
16G	.	.
16BB 16D	8r	.
16GJJ	.	.
16BB 16DLL	4r	.
16G	.	.
16BB 16D	.	.
16GJJ	.	.
=17	=17	=17
16BB 16DLL	([4ddd	.
16G	.	.
16BB 16D	.	.
16GJJ	.	.
16BB 16DLL	16dddLL]	.
16G	16ccc	.
16BB 16D	16bb	.
16GJJ	16aaJJ	.
16BB 16DLL	4gg')	.
16G	.	.
16BB 16D	.	.
16GJJ	.	.
16BB 16DLL	4r	.
16G	.	.
16BB 16D	.	.
16GJJ	.	.
=18	=18	=18
8DD 8D	16fLL	pp
.	16d	.
16DLL	16f	.
16AJJ	16dJJ	.
16DLL	16fLL	.
16A	16d	.
16D	16f	.
16AJJ	16dJJ	.
16DLL	16fLL	.
16A	16d	.
16D	16f	.
16AJJ	16dJJ	.
16DLL	16fLL	.
16A	16d	.
16D	16f	.
16AJJ	16dJJ	.
=19	=19	=19
16DLL	16fLL	.
16A	16d	.
16D	16f	.
16AJJ	16dJJ	.
16DLL	16fLL	.
16A	16d	.
16D	16f	.
16AJJ	16dJJ	.
16DLL	16fLL	.
16A	16d	.
16D	16f	.
16AJJ	16dJJ	.
16DLL	16g#LL	.
16B	16e	.
16D	16g#	.
16BJJ	16eJJ	.
=20	=20	=20
16C 16ELL	(4.a	.
16A	.	.
16C 16E	.	.
16AJJ	.	.
16C 16ELL	.	.
16A	.	.
16C 16E	16ccLL	.
16AJJ	16bJJ	.
16C 16ELL	8a')	.
16A	.	.
16C 16E	8r	.
16AJJ	.	.
16C 16ELL	4r	.
16A	.	.
16C 16E	.	.
16AJJ	.	.
=21	=21	=21
16C 16ELL	([4eee	.
16A	.	.
16C 16E	.	.
16AJJ	.	.
16C 16ELL	16eeeLL]	.
16A	16ddd	.
16C 16E	16ccc	.
16AJJ	16bbJJ	.
16C 16ELL	4r	.
16A	.	.
16C 16E	.	.
16AJJ	.	.
16C 16ELL	4aa')	.
16A	.	.
16C 16E	.	.
16AJJ	.	.
=22	=22	=22
16C 16ELL	([4eee'	.
16A#	.	.
16C 16E	.	.
16A#JJ	.	.
16C 16ELL	16eeeLL]	.
16A#	16ddd	.
16C 16E	16ccc	.
16A#JJ	16bbJJ	.
16C 16ELL	4aa#')	.
16A#	.	.
16C 16E	.	.
16A#JJ	.	.
16C 16ELL	4r	.
16A#	.	.
16C 16E	.	.
16A#JJ	.	.
=23	=23	=23
16BBLL	[4bb	p
16D#	.	.
16F#	.	.
16BJJ	.	.
16BBLL	16bbLL]	.
16D#	16aa	.
16F#	16gg	.
16BJJ	16ff#JJ	.
16BBLL	16ggLL	.
16E	16ff#	.
16G	16ee	.
16BJJ	16dd#JJ	.
16BBLL	16eeLL	.
16E	16gg	.
16G	16ff#	.
16BJJ	16eeJJ	.
=24	=24	=24
16BBLL	16dd#LL	.
16F#	16cc#	.
16A	16b	.
16BJJ	16a#JJ	.
16BBLL	16bLL	.
16F#	16cc#	.
16A	16dd	.
16BJJ	16dd#JJ	.
16BBLL	16eeLL	.
16E	16dd#	.
16G	16ee	.
16BJJ	16ff#JJ	.
16BBLL	16ggLL	.
16E	16gg#	.
16G	16aa	.
16BJJ	16aa#JJ	.
=25	=25	=25
16BBLL	16bbLL	.
16D#	16aa#	.
16F#	16bb	.
16BJJ	16aa#JJ	.
16BBLL	16bbLL	.
16D#	16aa	.
16F#	16gg	.
16BJJ	16ff#JJ	.
16BBLL	16ggLL	.
16E	16ff#	.
16G	16ee	.
16BJJ	16dd#JJ	.
16BBLL	16eeLL	.
16E	16gg	.
16G	16ff#	.
16BJJ	16eeJJ	.
=26	=26	=26
16BBLL	16dd#LL	.
16F#	16cc#	.
16A	16b	.
16BJJ	16a#JJ	.
16BBLL	16bLL	.
16F#	16cc#	.
16A	16dd	.
16BJJ	16dd#JJ	.
16BBLL	16eeLL	.
16E	16dd#	.
16G	16ee	.
16BJJ	16ff#JJ	.
16BBLL	16ggLL	.
16E	16gg#	.
16G	16aa	.
16BJJ	16aa#JJ	.
=27	=27	=27
16BBLL	16bbLL	.
16D#	16ff#	.
16F#	16dd#	.
16BJJ	16bJJ	.
16A#LL	16a#LL	.
16B	16b	.
16G	16ee	.
16EJJ	16ggJJ	.
16BBLL	16bbLL	.
16D#	16ff#	.
16F#	16dd#	.
16BJJ	16bJJ	.
16A#LL	16a#LL	.
16B	16b	.
16G	16ee	.
16EJJ	16ggJJ	.
=28	=28	=28
16BBLL	16bbLL	f
16D#	16ff#	.
16F#	16dd#	.
16BJJ	16bJJ	.
16BBLL	16bbLL	.
16E	16gg	.
16G	16ee	.
16BJJ	16bJJ	.
16BBLL	16bbLL	.
16D#	16ff#	.
16F#	16dd#	.
16BJJ	16bJJ	.
16BBLL	16bbLL	.
16E	16gg	.
16G	16ee	.
16BJJ	16bJJ	.
=29	=29	=29
4BB 4D# 4F# 4B	16bbLL	.
.	16ff#	.
.	16dd#	.
.	16bJJ	.
4r	16ff#LL	.
.	16dd#	.
.	16b	.
.	16f#JJ	.
2r	16dd#LL	.
.	16b	.
.	16f#	.
.	16d#JJ	.
.	16bLL	.
.	16f#	.
.	16d#	.
.	16BJJ	.
*	*clefF4	*clefF4
=30	=30	=30
2r	16f#LL	.
.	16d#	.
.	16B	.
.	16F#JJ	.
.	16d#LL	.
.	16B	.
.	16F#	.
.	16D#JJ	.
4r	16BLL	.
.	16F#	.
.	16D#	.
.	16BBJJ	.
16BBBLL	4r	.
16DD#	.	.
16FF#	.	.
16BBJJ	.	.
*	*clefG2	*clefG2
=31	=31	=31
8BBB''L	2r	.
8BB''	.	.
8CC#''	.	.
8C#''J	.	.
8DD#''L	8b''L	.
8D#''J	8B''	.
4r	8cc#''	.
.	8c#''J	.
=32	=32	=32
8DD#''L	8dd#''L	.
8D#''	8d#''J	.
8EE''	4r	.
8E''J	.	.
8FF#''L	8dd#''L	.
8F#''J	8d#''	.
4r	8ee''	.
.	8e''J	.
=33	=33	=33
2r	8ff#''L	p
.	8f#''	.
.	8gg#''	.
.	8g#''J	.
8FF#''L	8aa''L	.
8F#''	8a''	.
8GG#''	8aa''	.
8G#''J	8b''J	.
=34	=34	=34
8AA''L	8aa''L	.
8A''	8cc#''	.
8BB''	8aa''	.
8B''J	8dd#''J	.
8C#''L	8aa''L	.
8c#''	8ee''	.
8D#''	8aa''	.
8d#''J	8ff#''J	.
*clefG2	*	*
=35	=35	=35
(2e 2g#	2b 2ee (2gg#	.
4B 4d# 4f#	4a 4dd# 4ff#	.
4c# 4e	4g# 4cc# 4ee	.
=36	=36	=36
2G# 2B# 2d#	2f# 2b# 2dd#	.
2A) 2c#	2e 2cc#)	.
*clefF4	*	*
=37	=37	=37
2F# 2A 2B (2d#	2a 2b (2dd#	.
4G# 4B 4e	4b 4ee	.
4A 4c# 4f#	4cc# 4ee 4ff#	.
*clefG2	*	*
=38	=38	=38
*^	*^	*
2e 2g#	1B	2ee 2gg#	2.b	.
2d# 2f#)	.	2dd# 2ff#)	.	.
.	.	.	4a	.
*v	*v	*	*	*
*clefF4	*	*	*
*	*v	*v	*
=39	=39	=39
(2E 2G#	2B 2e (2g#	p
4BB 4D# 4F#	4A 4d# 4f#	.
4C# 4E	4G# 4c# 4e	.
=40	=40	=40
2GG# 2BB#	2D# 2F# 2B# 2d#	.
2AA) 2C#	2E 2A 2c#)	.
=41	=41	=41
*^	*	*
4E (4G#	1BBB 1BB	(2B	.
2.F# 2.A)	.	.	.
.	.	4c#	.
.	.	4d#)	.
*v	*v	*	*
=42	=42	=42
4EE 4E	12G#' 12e'L	p
.	12f#'	.
.	12g#'J	.
4r	12a'L	.
.	12b'	.
.	12cc#'J	.
2r	12dd'L	.
.	12dd#	.
.	12ee'J	.
.	12ee#'L	.
.	12ff#'	.
.	12ff##'J	.
*clefG2	*	*
=43	=43	=43
*	*^	*
(2e 2g#	12gg#L	2b	.
.	12ff##	.	.
.	12gg#J	.	.
.	12aaL	.	.
.	12ff##	.	.
.	12gg#J	.	.
4B 4d# 4f#	12aL	4a	.
.	12gg#	.	.
.	12ff#J	.	.
4c# 4e	12g#L	4g#	.
.	12ff#	.	.
.	12eeJ	.	.
=44	=44	=44	=44
2G# 2B# 2d#	12f#L	2f#	.
.	12b#	.	.
.	12dd#J	.	.
.	12eeL	.	.
.	12b#	.	.
.	12dd#J	.	.
2A) 2c#	12eL	2e	.
.	12a	.	.
.	12cc#J	.	.
.	12dd#L	.	.
.	12a	.	.
.	12cc#J	.	.
*clefF4	*	*	*
=45	=45	=45	=45
2F# 2A 2B 2d#	12aL	2a	.
.	12cc##	.	.
.	12dd#J	.	.
.	12eeL	.	.
.	12cc##	.	.
.	12dd#J	.	.
4G# 4B 4e	12bL	4b	.
.	12ff#	.	.
.	12eeJ	.	.
4A 4c# 4f#	12cc#L	4cc#	.
.	12gg#	.	.
.	12ff#J	.	.
*clefG2	*	*	*
=46	=46	=46	=46
*^	*	*	*
2e (2g#	2.B	12gg#L	2ee	.
.	.	12ff##	.	.
.	.	12gg#J	.	.
.	.	12bbL	.	.
.	.	12aa	.	.
.	.	12gg#J	.	.
4d# 4f#)	.	12ff#L	12dd#L	.
.	.	12ee	12cc#	.
.	.	12dd#J	12bJ	.
*v	*v	*	*	*
*clefF4	*	*	*
*^	*	*	*
(12BBL	4r	12cc#L	12aL	.
12C#	.	12b	12g#	.
12D#J)	.	12aJ	12f#J	.
*v	*v	*	*	*
=47	=47	=47	=47
2E (2G#	(12g#L	2B	p
.	12f##	.	.
.	12g#J	.	.
.	12aL	.	.
.	12f##	.	.
.	12g#J	.	.
4BB 4D# 4F#	12AL	4A	.
.	12g#	.	.
.	12f#J	.	.
4C# 4E	12G#L	4G#	.
.	12f#	.	.
.	12eJ)	.	.
*	*v	*v	*
*	*clefF4	*clefF4
=48	=48	=48
*	*^	*
2GG# 2BB# 2D#	(12F#L	2F#	.
.	12B#	.	.
.	12d#J	.	.
.	12eL	.	.
.	12B#	.	.
.	12d#J	.	.
2AA 2C#)	12EL	2E	.
.	12A	.	.
.	12c#J	.	.
.	12d#L	.	.
.	12A	.	.
.	12c#J	.	.
=49	=49	=49	=49
1BBB 1BB	12EL	4E	.
.	12G#	.	.
.	12BJ	.	.
.	12F#L	4F#	.
.	12A	.	.
.	12BJ	.	.
.	12F#L	4F#	.
.	12A	.	.
.	12c#J	.	.
.	12F#L	4F#	.
.	12A	.	.
.	12d#J)	.	.
*	*v	*v	*
*	*clefG2	*clefG2
=50	=50	=50
4EE 4E	12G# (12eL	f
.	12B	.
.	12G#J	.
2BB	12BL	.
.	12e	.
.	12g#J	.
.	12f#L	.
.	12d#	.
.	12BJ	.
[4BB	12d#L	.
.	12f#	.
.	12aJ	.
=51	=51	=51
4BB]	12g#L	.
.	12e	.
.	12BJ	.
2BB	12eL	.
.	12g#	.
.	12bJ	.
.	12aL	.
.	12f#	.
.	12d#J	.
4BB	12dd#L	.
.	12a	.
.	12f#J	.
=52	=52	=52
(12EL	4g# 4ee)	.
12BB	.	.
12GG#J	.	.
12BBL	2b	.
12E	.	.
12G#J	.	.
12F#L	.	.
12D#	.	.
12BBJ	.	.
12D#L	[4b	.
12F#	.	.
12AJ	.	.
=53	=53	=53
12G#L	4b]	.
12E	.	.
12BBJ	.	.
12EL	2b	.
12G#	.	.
12BJ	.	.
12AL	.	.
12F#	.	.
12D#J	.	.
12d#L	4b	.
12A	.	.
12F#J)	.	.
=54	=54	=54
(12G#L	(12eeL	.
12B	12b	.
12eJ	12g#J	.
12BL	12bL	.
12G#	12ee	.
12EJ	12gg#J	.
12D#L	12ff#L	.
12F#	12dd#	.
12AJ	12bJ	.
12F#L	12dd#L	.
12D#	12ff#	.
12BBJ	12aaJ	.
=55	=55	=55
12EL	12gg#L	.
12G#	12ee	.
12BJ	12bJ	.
12G#L	12eeL	.
12E	12gg#	.
12BBJ	12bbJ	.
12F#L	12aaL	.
12A	12ff#	.
12BJ	12dd#J	.
12AL	12ddd#L	.
12B	12bb	.
12f#J)	12ff#J)	.
=56	=56	=56
(12G#L	(12eeeL	.
12B	12bb	.
12eJ	12gg#J	.
12EL	12bbL	.
12G#	12gg#	.
12BJ	12eeJ	.
12F#L	12aaL	.
12A	12ff#	.
12BJ	12dd#J	.
12AL	12ddd#L	.
12B	12bb	.
12f#J	12ff#J	.
=57	=57	=57
12G#L	12eeeL	.
12B	12bb	.
12eJ	12gg#J	.
12EL	12bbL	.
12G#	12gg#	.
12BJ	12eeJ	.
12F#L	12aaL	.
12A	12ff#	.
12BJ	12dd#J	.
12AL	12ddd#L	.
12B	12bb	.
12f#J)	12ff#J)	.
=58	=58	=58
16G#LL	16eeeLL	.
16B	16bb	.
16E	16gg#	.
16BJJ	16eeJJ	.
16F#LL	16aaLL	.
16B	16ff#	.
16A	16ddd#	.
16BJJ	16bbJJ	.
16G#LL	16eeeLL	.
16B	16bb	.
16E	16gg#	.
16BJJ	16eeJJ	.
16F#LL	16aaLL	.
16B	16ff#	.
16A	16ddd#	.
16BJJ	16bbJJ	.
=59	=59	=59
16G#LL	16eeeLL	.
16B	16bb	.
16A	16ddd#	.
16BJJ	16bbJJ	.
16G#LL	16eeeLL	.
16B	16bb	.
16A	16ddd#	.
16BJJ	16bbJJ	.
16G#LL	16eeeLL	.
16B	16bb	.
16A	16ddd#	.
16BJJ	16bbJJ	.
16G#LL	16eeeLL	.
16B	16bb	.
16A	16ddd#	.
16BJJ	16bbJJ	.
=60	=60	=60
16G#LL	16eeeLL	f
16BJJ	16bb	.
16GG#LL	16ddd	.
16EJJ	16bbJJ	.
16GG#LL	16dddLL	.
16E	16bb	.
16GG#	16ddd	.
16EJJ	16bbJJ	.
16GG#LL	16dddLL	.
16E	16bb	.
16GG#	16ddd	.
16EJJ	16bbJJ	.
16GG#LL	16dddLL	.
16E	16bb	.
16GG#	16ddd	.
16EJJ	16bbJJ	.
=61	=61	=61
16GG#LL	8dddL	.
16E	.	.
16GG#	16ccc#L	.
16EJJ	16bbJJ	.
16GG#LL	16aaLL	.
16E	16gg#	.
16GG#	16ff#	.
16EJJ	16eeJJ	.
16GG#LL	16ddLL	.
16E	16cc#	.
16GG#	16b	.
16EJJ	16aJJ	.
16GG#LL	16g#LL	.
16E	16f#	.
16GG#	16e	.
16EJJ	16dJJ	.
=62	=62	=62
8AA 8C# 8EL	16c#LL	ff
.	16d#	.
8AA 8C# 8EJ	16e	.
.	16d#JJ	.
8r	16eLL	.
.	16g#	.
8AA 8C# 8E	16a	.
.	16g#JJ	.
8AA 8C# 8EL	16aLL	.
.	16b#	.
8AA 8C# 8EJ	16cc#	.
.	16b#JJ	.
8r	16cc#LL	.
.	16dd#	.
8AA 8C# 8E	16ee	.
.	16dd#JJ	.
=63	=63	=63
8AA 8C# 8EL	16eeLL	.
.	16gg#	.
8AA 8C# 8EJ	16aa	.
.	16gg#JJ	.
8r	16aaLL	.
.	16bb#	.
8AA 8C# 8E	16ccc#	.
.	16bb#JJ	.
8AA 8C# 8EL	16ccc#LL	.
.	16ddd#	.
8AA 8C# 8EJ	16eee	.
.	16ddd#JJ	.
8r	16eeeLL	.
.	16ddd#	.
8AA 8C# 8E	16ccc#	.
.	16bb#JJ	.
=64	=64	=64
8AA# 8C# 8E 8F#L	16ccc#LL	.
.	16bb#	.
8AA# 8C# 8E 8F#J	16ccc#	.
.	16ddd#JJ	.
8r	16eeeLL	.
.	16ddd#	.
8AA# 8C# 8E 8F#	16ccc#	.
.	16bb#JJ	.
8AA# 8C# 8E 8F#L	16ccc#LL	.
.	16bb#	.
8AA# 8C# 8E 8F#J	16ccc#	.
.	16ddd#JJ	.
8r	16eeeLL	.
.	16ddd#	.
8AA# 8C# 8E 8F#	16ccc#	.
.	16bb#JJ	.
=65	=65	=65
8AA# 8C# 8E 8F#L	16ccc#LL	.
.	16bb#	.
8AA# 8C# 8E 8F#J	16ccc#	.
.	16ddd#JJ	.
8r	16eeeLL	.
.	16ddd#	.
8AA# 8C# 8E 8F#	16ccc#	.
.	16bb#JJ	.
8AA# 8C# 8E 8F#L	16ccc#LL	.
.	16bb#	.
8AA# 8C# 8E 8F#J	16ccc#	.
.	16ddd#JJ	.
8r	16eeeLL	.
.	16ddd#	.
8AA# 8C# 8E 8F#	16eee	.
.	16ccc#JJ	.
=66	=66	=66
16BBLL	8b' 8bb'L	.
16E	.	.
16G#	8b' 8bb'	.
16BJJ	.	.
16BBLL	8g#' 8gg#'	.
16E	.	.
16G#	8e' 8ee'J	.
16BJJ	.	.
16BBLL	8ee' 8eee'L	.
16E	.	.
16G#	8ee' 8eee'	.
16BJJ	.	.
16BBLL	8b' 8bb'	.
16E	.	.
16G#	8g#' 8gg#'J	.
16BJJ	.	.
=67	=67	=67
16BBLL	8b' 8bb'L	.
16E	.	.
16G#	8b' 8bb'	.
16BJJ	.	.
16BBLL	8g#' 8gg#'	.
16E	.	.
16G#	8e' 8ee'J	.
16BJJ	.	.
8G#'L	8ee' 8eee'L	.
8G#'	8ee' 8eee'	.
8E'	8b' 8bb'	.
8BB'J	8g#' 8gg#'J	.
=68	=68	=68
8B'L	16r	.
.	16gg#LL	p
8G#'	16bb	.
.	16gg#JJ	.
8e'	16bbLL	.
.	16gg#	.
8B'J	16bb	.
.	16gg#JJ	.
*clefG2	*	*
8g#'L	16bbLL	.
.	16gg#	.
8e'	16bb	.
.	16gg#JJ	.
8b'	16bbLL	.
.	16gg#	.
8g#'J	16bb	.
.	16gg#JJ	.
=69	=69	=69
8ee'L	16bbLL	.
.	16gg#	.
8b'	16bb	.
.	16gg#JJ	.
8ee'	16bbLL	.
.	16gg#	.
8bJ	16bb	.
.	16gg#JJ	.
8ee'L	16bbLL	.
.	16gg#	.
8b'	16bb	.
.	16gg#JJ	.
8ee'	16bbLL	.
.	16gg#	.
8b'J	16bb	.
.	16gg#JJ	.
=70	=70	=70
8dd#'L	16r	.
.	16aaLL	.
8b'	16bb	.
.	16aaJJ	.
8dd#'	16cccLL	.
.	16aa	.
8b'J	16bb	.
.	16aaJJ	.
8dd#'L	16cccLL	.
.	16aa	.
8b'	16bb	.
.	16aaJJ	.
8dd#'	16cccLL	.
.	16aa	.
8b'J	16bb	.
.	16aaJJ	.
=71	=71	=71
8dd#'L	16cccLL	pp
.	16aa	.
8b'	16bb	.
.	16aaJJ	.
8dd#'	16cccLL	.
.	16aa	.
8b'J	16bb	.
.	16aaJJ	.
8dd#'L	16cccLL	.
.	16aa	.
8b'	16bb	.
.	16aaJJ	.
8dd#'	16cccLL	.
.	16aa	.
8b'J	16bb	.
.	16aaJJ	.
=72	=72	=72
[1dd#	16ccc#LL	.
.	16aa	.
.	16bb	.
.	16aaJJ	.
.	16ccc#LL	.
.	16aa	.
.	16bb	.
.	16aaJJ	.
.	16ccc#LL	.
.	16aa	.
.	16bb	.
.	16aaJJ	.
.	16ccc#LL	.
.	16aa	.
.	16bb	.
.	16aaJJ	.
=73	=73	=73
1dd#]	16fff#LL	.
.	16aa 16bb	.
.	16fff#	.
.	16aa 16bbJJ	.
.	16fff#LL	.
.	16aa 16bb	.
.	16fff#	.
.	16aa 16bbJJ	.
.	16fff#LL	.
.	16aa 16bb	.
.	16fff#	.
.	16aa 16bbJJ	.
.	16fff#LL	.
.	16aa 16bb	.
.	16fff#	.
.	16aa 16bbJJ	.
=74	=74	=74
*^	*	*
(2ee	[1e	2.gg# 2.bb 2.eee	.
2g# 2b 2dd	.	.	.
.	.	16eeeLL	.
.	.	16ddd	.
.	.	16ccc	.
.	.	16bbJJ	.
=75	=75	=75	=75
2a 2cc	2e_	16cccLL	.
.	.	16bb	.
.	.	16aa	.
.	.	16gg#JJ	.
.	.	16aaLL	.
.	.	16bb	.
.	.	16ccc	.
.	.	16dddJJ	.
2g# 2b 2dd	2e]	16eeeLL	.
.	.	16fff	.
.	.	16eee	.
.	.	16ddd#JJ	.
.	.	16eeeLL	.
.	.	16ddd	.
.	.	16ccc	.
.	.	16bbJJ	.
=76	=76	=76	=76
*	*	*^	*
4cc)	4a	16cccLL	4r	.
.	.	16ddd	.	.
.	.	16ccc	.	.
.	.	16bbJJ	.	.
4r	4r	16aaLL	4r	.
.	.	16gg#	.	.
.	.	16aa	.	.
.	.	16bbJJ	.	.
2r	(2A 2c 2f# 2a	2cc	(4ccc	.
.	.	.	8aaL	.
.	.	.	8ff#J	.
*v	*v	*	*	*
=77	=77	=77	=77
2B 2e 2g	4bb	2b	.
.	8ggL	.	.
.	8eeJ	.	.
2B) 2d# 2f#	4aa	2a	.
.	8ff#L	.	.
.	8dd#J)	.	.
*clefF4	*	*	*
*	*v	*v	*
=78	=78	=78
*^	*	*
(2e	[1E	2.ee	.
2G# 2B 2d	.	.	.
.	.	16eeLL	.
.	.	16dd	.
.	.	16cc	.
.	.	16bJJ	.
=79	=79	=79	=79
2A 2c	1E]	16ccLL	.
.	.	16b	.
.	.	16a	.
.	.	16g#JJ	.
.	.	16aLL	.
.	.	16b	.
.	.	16cc	.
.	.	16ddJJ	.
2G# 2B 2d	.	16eeLL	.
.	.	16ff	.
.	.	16ee	.
.	.	16dd#JJ	.
.	.	16eeLL	.
.	.	16dd	.
.	.	16cc	.
.	.	16bJJ	.
=80	=80	=80	=80
*	*	*^	*
4c)	4A	4r	16aLL	.
.	.	.	16g#	.
.	.	.	16a	.
.	.	.	16bJJ	.
4r	4r	16ccLL	2c	.
.	.	16dd	.	.
.	.	16cc	.	.
.	.	16bJJ	.	.
2r	2AA 2C 2F# (2A	4r	.	.
.	.	(4cc	8aL	.
.	.	.	8f#J	.
*v	*v	*	*	*
=81	=81	=81	=81
2BB 2E 2G	4b	2B	.
.	8gL	.	.
.	8eJ	.	.
2BB 2D# 2F#)	4a	2A	.
.	8f#L	.	.
.	8d#J)	.	.
*	*v	*v	*
=82	=82	=82
*^	*	*
4G	4E'	4e'	.
[4E	4GG	(8eeL	.
.	.	8ddJ	.
(8EL]	2AA	4cc	.
8F	.	.	.
8G	.	8aL	.
8AJ)	.	8fJ	.
=83	=83	=83	=83
2G (2B	1BB	4b	p
.	.	8gL	.
.	.	8eJ	.
2F# 2A)	.	4a	.
.	.	8f#L	.
.	.	8d#J	.
=84	=84	=84	=84
4E 4G	4C	4e')	.
[4C	4EE	(8ccL	.
.	.	8bJ	.
(8CL]	2FF	4a	.
8D	.	.	.
8E	.	8fL	.
8FJ)	.	8dJ	.
=85	=85	=85	=85
2E (2G	1GG	4g	p
.	.	8eL	.
.	.	8cJ	.
2D 2F)	.	4f	.
.	.	8dL	.
.	.	8BJ)	.
*v	*v	*	*
*	*clefF4	*clefF4
=86	=86	=86
8CC 8CL	8E 8cL	pp
8CC 8GG	8C 8E	.
8CC 8GG	8C 8E	.
8CC 8GGJ	8C 8EJ	.
8CC 8GGL	8C 8EL	.
8CC 8GG	8C 8E	.
8CC 8GG	8C 8E	.
8CC 8GGJ	8C 8EJ	.
=87	=87	=87
8CC 8GGL	8C 8EL	.
8CC 8GG	8C 8E	.
8CC 8GG	8C 8E	.
8CC 8GGJ	8C 8EJ	.
8CC 8GGL	8C 8EL	.
8CC 8GG	8C 8E	.
8CC 8AA	8D 8F#	.
8CC 8AAJ	8D 8F#J	.
*	*clefG2	*clefG2
=88:|!	=88:|!	=88:|!
*^	*	*
4E	4C	4c	.
[4F	4AA	(8ffL	.
.	.	8eeJ	.
(8FL]	2BB-	4dd	.
8G	.	.	.
8A	.	8b-L	.
8B-J)	.	8gJ	.
=89	=89	=89	=89
2A (2c	1C	4cc	p
.	.	8aL	.
.	.	8fJ	.
2G 2B-)	.	4b-	.
.	.	8gL	.
.	.	8eJ)	.
=90	=90	=90	=90
4F 4A	4D	4f'	.
[4FF	4AAA	(8fL	.
.	.	8eJ	.
(8FFL]	2BBB-	4d	.
8GG	.	.	.
8AA	.	8B-L	.
8BB-J)	.	8GJ	.
*	*	*clefF4	*clefF4
=91	=91	=91	=91
(2AA 2C	1CC	4c	p
.	.	8AL	.
.	.	8FJ	.
2GG) 2BB-	.	4B-	.
.	.	8GL	.
.	.	8EJ)	.
*v	*v	*	*
=92	=92	=92
8FFF 8FFL	8AA 8FL	pp
8FFF 8CC	8FF 8AA	.
8FFF 8CC	8FF 8AA	.
8FFF 8CCJ	8FF 8AAJ	.
8FFF 8CCL	8FF 8AAL	.
8FFF 8CC	8FF 8AA	.
8FFF 8CC	8FF 8AA	.
8FFF 8CCJ	8FF 8AAJ	.
=93	=93	=93
8FFF 8CCL	8FF 8AAL	.
8FFF 8CC	8FF 8AA	.
8FFF 8CC	8FF 8AA	.
8FFF 8CCJ	8FF 8AAJ	.
8FFF 8CCL	8FF 8AAL	.
8FFF 8CC	8FF 8AA	.
8FFF 8DD	8GG 8BB	.
8FFF 8DDJ	8GG 8BBJ	.
=94	=94	=94
8EE 8GGL	(4.C	.
8EE 8GG	.	.
8EE 8GG	.	.
8EE 8GGJ	16ELL	.
.	16DJJ	.
8EE 8GGL	8C')	.
8EE 8GG	8r	.
8EE 8GG	4r	.
8EE 8GGJ	.	.
*	*clefG2	*clefG2
=95	=95	=95
8EE- 8GGL	([4gg)	.
8EE- 8GG	.	.
8EE- 8GG	16ggLL]	.
.	16ff	.
8EE- 8GGJ	16ee-	.
.	16ddJJ	.
8EE- 8GGL	4r	.
8EE- 8GG	.	.
8EE- 8GG	4cc')	.
8EE- 8GGJ	.	.
*	*clefF4	*clefF4
=96	=96	=96
8DD 8AAL	(4.F#	.
8DD 8AA	.	.
8DD 8AA	.	.
8DD 8AAJ	16ALL	.
.	16GJJ	.
8DD 8AAL	8r	.
8DD 8AA	4r	.
8DD 8AA	.	.
8DD 8AAJ	8F#')	.
*	*clefG2	*clefG2
=97	=97	=97
8FF# 8DL	([4eee-)	.
8FF# 8D	.	.
8FF# 8D	16eee-LL]	.
.	16ddd	.
8FF# 8DJ	16ccc	.
.	16bb-JJ	.
8FF# 8DL	4r	.
8FF# 8D	.	.
8FF# 8D	4aa')	.
8FF# 8DJ	.	.
=98	=98	=98
16GGLL	(8B-L	.
16D	.	.
16GG	16dL	.
16DJJ	16cJJ	.
16GGLL	4B-')	.
16D	.	.
16GG	.	.
16DJJ	.	.
16AALL	(16cccLL	.
16D	16bb-	.
16AA	16aa	.
16DJJ	16ggJJ	.
16AALL	4ff#')	.
16D	.	.
16AA	.	.
16DJJ	.	.
=99	=99	=99
16BB-LL	(8gL	.
16D	.	.
16BB-	16b-L	.
16DJJ	16aJJ	.
16BB-LL	4g')	.
16D	.	.
16BB-	.	.
16DJJ	.	.
16FF#LL	(16eee-LL	.
16D	16ddd	.
16FF#	16ccc	.
16DJJ	16bb-JJ	.
16FF#LL	4aa')	.
16D	.	.
16FF#	.	.
16DJJ	.	.
=100	=100	=100
16GGLL	(8B-L	.
16D	.	.
16GG	16dL	.
16DJJ	16cJJ	.
16GGLL	4B-')	.
16D	.	.
16GG	.	.
16DJJ	.	.
16AALL	(16cccLL	.
16D	16bb-	.
16AA	16aa	.
16DJJ	16ggJJ	.
16AALL	4ff#')	.
16D	.	.
16AA	.	.
16DJJ	.	.
=101	=101	=101
16BB-LL	(16ddLL	.
16D	16cc	.
16BB-	16b-	.
16DJJ	16aJJ	.
16BB-LL	4g')	.
16G	.	.
16BB-	.	.
16GJJ	.	.
16BBLL	(16aa-LL	.
16G	16gg	.
16BB	16ff	.
16GJJ	16ee-JJ	.
16BBLL	4dd')	.
16G	.	.
16BB	.	.
16GJJ	.	.
=102	=102	=102
16CLL	(8e-L	p
16G	.	.
16C	16gL	.
16GJJ	16fJJ	.
16CLL	4e-')	.
16G	.	.
16C	.	.
16GJJ	.	.
16DLL	(16ffLL	.
16G	16ee-	.
16D	16dd	.
16GJJ	16ccJJ	.
16DLL	4b')	.
16G	.	.
16D	.	.
16GJJ	.	.
=103	=103	=103
16E-LL	(8cL	.
16G	.	.
16E-	16e-L	.
16GJJ	16dJJ	.
16E-LL	4c')	.
16G	.	.
16E-	.	.
16GJJ	.	.
16BBLL	(16aa-LL	.
16G	16gg	.
16BB	16ff	.
16GJJ	16ee-JJ	.
16BBLL	4dd')	.
16G	.	.
16BB	.	.
16GJJ	.	.
=104	=104	=104
16CLL	(8e-L	.
16G	.	.
16C	16gL	.
16GJJ	16fJJ	.
16CLL	4e-')	.
16G	.	.
16C	.	.
16GJJ	.	.
16DLL	(16ffLL	.
16G	16ee-	.
16D	16dd	.
16GJJ	16ccJJ	.
16DLL	4b')	.
16G	.	.
16D	.	.
16GJJ	.	.
=105	=105	=105
16E-LL	(16ggLL	.
16G	16ff	.
16E-	16ee-	.
16GJJ	16ddJJ	.
16E-LL	4cc')	.
16c	.	.
16E-	.	.
16cJJ	.	.
16ELL	(16ddd-LL	f
16c	16ccc	.
16E	16bb-	.
16cJJ	16aa-JJ	.
16ELL	4gg')	.
16c	.	.
16E	.	.
16cJJ	.	.
=106	=106	=106
16FLL	(8aa-L	pp
16A-	.	.
16c	16cccL	.
16fJJ	16bb-JJ	.
16FLL	4aa-')	.
16A-	.	.
16c	.	.
16fJJ	.	.
16FLL	(8ddd-L	.
16B-	.	.
16d-	16fffL	.
16fJJ	16eee-JJ	.
16FLL	4ddd-')	.
16B-	.	.
16d-	.	.
16fJJ	.	.
=107	=107	=107
16FLL	(8g-L	.
16G-	.	.
16B-	16b-L	.
16d-JJ	16a-JJ	.
16FLL	4g-')	.
16G-	.	.
16B-	.	.
16d-JJ	.	.
16E-LL	2cc-	.
16G-	.	.
16c-	.	.
16e-JJ	.	.
16E-LL	.	.
16G-	.	.
16c-	.	.
16e-JJ	.	.
=108	=108	=108
16E-LL	(8ffL	.
16F	.	.
16A	16aaL	.
16cJJ	16ggJJ	.
16E-LL	4ff')	.
16F	.	.
16A	.	.
16cJJ	.	.
16D-LL	(8bb-L	.
16F	.	.
16B-	16ddd-L	.
16d-JJ	16cccJJ	.
16D-LL	4bb-')	.
16F	.	.
16B-	.	.
16d-JJ	.	.
=109	=109	=109
16D-LL	(8e-L	.
16E-	.	.
16G	16gL	.
16B-JJ	16fJJ	.
16D-LL	4e-')	.
16E-	.	.
16G	.	.
16B-JJ	.	.
16CLL	2a-	.
16E-	.	.
16A-	.	.
16cJJ	.	.
16CLL	.	.
16E-	.	.
16A-	.	.
16cJJ	.	.
=110	=110	=110
16CLL	(8dd-L	.
16D-	.	.
16F	16ffL	.
16A-JJ	16ee-JJ	.
16CLL	4dd-')	.
16D-	.	.
16F	.	.
16A-JJ	.	.
16BB-LL	(8gg-L	.
16D-	.	.
16G-	16bb-L	.
16B-JJ	16aa-JJ	.
16BB-LL	4gg-')	.
16D-	.	.
16G-	.	.
16B-JJ	.	.
=111	=111	=111
16BB-LL	(8cL	.
16C	.	.
16E	16eL	.
16GJJ	16dJJ	.
16BB-LL	4c')	.
16C	.	.
16E	.	.
16GJJ	.	.
16AA-LL	2cc	.
16C	.	.
16F	.	.
16A-JJ	.	.
16AA-LL	.	.
16C	.	.
16F	.	.
16A-JJ	.	.
=112	=112	=112
16GGLL	(8ccL	.
16BB-	.	.
16E	16eeL	.
16GJJ	16ddJJ	.
16GGLL	4cc')	.
16BB-	.	.
16E	.	.
16GJJ	.	.
16FFLL	2ccc	.
16AA-	.	.
16C	.	.
16FJJ	.	.
(12FFL	.	.
12AA-	.	.
12FJ	.	.
=113	=113	=113
*M4/4	*M4/4	*M4/4
12EEL	(8cccL	.
12GG	.	.
.	16eeeL	.
12EJ	.	.
.	16dddJJ	.
12EE-L	8ccc'L)	.
12GG	.	.
.	8ccc'J	.
12E-J	.	.
12DDL	8ccc'L	.
12FF	.	.
.	(8ccc	.
12DJ	.	.
12DD-L	8fff	.
12FF	.	.
.	8bbJ)	.
12D-J)	.	.
=114	=114	=114
(12CC 12CL	4ccc	f
12GG	.	.
12EEJ	.	.
12GGL	2g	.
12C	.	.
12EJ	.	.
12DL	.	.
12BB	.	.
12GGJ	.	.
12BBL	4g	.
12D	.	.
12FJ)	.	.
=115	=115	=115
(12EL	(12ccL	.
12G	12g	.
12cJ	12eJ	.
12GL	12gL	.
12E	12cc	.
12CJ	12eeJ	.
12FL	12ddL	.
12A-	12b	.
12cJ	12a-J	.
12A-L	12bL	.
12F	12dd	.
12CJ)	12ffJ)	.
=116	=116	=116
*^	*	*
12GL	[4G	(12eeL	.
[12B-	.	12dd-	.
12B-] [12cJ	.	12b-J	.
4c_	12G_ [12B-L	12dd-L	.
.	12G_ 12B-_	12ee	.
.	[12C 12G_ 12B-J_	12ggJ	.
2c]	2C_ 2G_ (2B-]	12bb-L	.
.	.	12ee	.
.	.	12ddd-J	.
.	.	12eeL	.
.	.	12dd-	.
.	.	12bb-J)	.
*v	*v	*	*
=117	=117	=117
1C] 1G] 1B 1c)	(12dd-L	.
.	12b-	.
.	12eeJ	.
.	12b-L	.
.	12e	.
.	12dd-J	.
.	12b-L	.
.	12e	.
.	12ccJ	.
.	12b-L	.
.	12e	.
.	12ccJ)	.
=118	=118	=118
12FF (12FL	4f 4a 4cc	.
12C	.	.
12AAJ	.	.
12CL	2cc	.
12F	.	.
12AJ	.	.
12GL	.	.
12E	.	.
12CJ	.	.
12EL	4cc	.
12G	.	.
12B-J)	.	.
=119	=119	=119
12AL	12ffL	.
12c	12cc	.
12fJ	12aJ	.
12cL	12eeL	.
12A	12ff	.
12FJ	12aaJ	.
12B-L	12ggL	.
12d-	12ee	.
12fJ	12dd-J	.
12d-L	12eeL	.
12B-	12gg	.
12FJ	12bb-J	.
=120	=120	=120
*^	*	*
12cL	[4c	12aaL	.
[12e-	.	12gg-	.
12e-] [12fJ	.	12ee-J	.
4f_	12c] [12e-L	12gg-L	.
.	[12c 12e-_	12aa	.
.	12F 12c] 12e-J]	12cccJ	.
2f]	2F (2c 2e-	12aaL	.
.	.	12gg-	.
.	.	12eee-J	.
.	.	12gg-L	.
.	.	12ee-	.
.	.	12cccJ	.
*v	*v	*	*
=121	=121	=121
1F 1c 1e-) 1f	12ee-L	.
.	12cc	.
.	12aaJ	.
.	12ee-L	.
.	12a	.
.	12gg-J	.
.	12ee-L	.
.	12a	.
.	12ffJ	.
.	12ee-L	.
.	12a	.
.	12ffJ	.
=122	=122	=122
12BBB- 12BB-L	4b- 4dd 4ff	.
12FF	.	.
12DDJ	.	.
12GGL	2f	.
12BB-	.	.
12DJ	.	.
12CL	.	.
12AA	.	.
12FFJ	.	.
12AAL	4f	.
12C	.	.
12E-J	.	.
=123	=123	=123
12DL	12b-L	.
12F	12f	.
12B-J	12dJ	.
12FL	12fL	.
12D	12b-	.
12BB-J	12ddJ	.
12E-L	12ccL	.
12G-	12a	.
12B-J	12g-J	.
12G-L	12aL	.
12E-	12cc	.
12BB-J	12ee-J	.
=124	=124	=124
*^	*	*
12FL	[4F	12ddL	.
[12A-	.	12cc-	.
12A-] [12B-J	.	12a-J	.
4B-_	12F] [12A-L	12cc-L	.
.	12F 12A-_	12dd	.
.	12BB- 12F 12A-J]	12ffJ	.
2B-]	2BB- (2F 2A-	12aa-L	.
.	.	12ee	.
.	.	12ccc-J	.
.	.	12ddL	.
.	.	12cc-	.
.	.	12aa-J	.
*v	*v	*	*
=125	=125	=125
1BB 1F 1A-) 1B-	12cc-L	.
.	12a-	.
.	12ffJ	.
.	12a-L	.
.	12f	.
.	12ddJ	.
.	12a-L	.
.	12d	.
.	12cc-J	.
.	12a-L	.
.	12d	.
.	12b-J	.
=126	=126	=126
*^	*	*
12E-L	[4E-	12gg-L	.
[12G-	.	12ee-	.
12G-] [12B-J	.	12b-J	.
4B-_	12E-] 12G-L	12ee-L	.
.	[12E- [12G-	12gg-	.
.	12BB- 12E-] 12G-J_	12bb-J	.
2G-_ 2B-_	[2BB- [2E-	12gg-L	.
.	.	12ee-	.
.	.	12eee-J	.
.	.	12ee-L	.
.	.	12b-	.
.	.	12bb-J	.
*v	*v	*	*
=127	=127	=127
1BB-] 1E-] 1G-] 1B-]	12b-L	.
.	12g-	.
.	12gg-J	.
.	12g-L	.
.	12e-	.
.	12ee-J	.
.	12g-L	.
.	12e-	.
.	12ee-J	.
.	12g-L	.
.	12e-	.
.	12ee-J	.
=128	=128	=128
*^	*	*
12C#L	[4C#	12ff#L	.
[12F#	.	12ee	.
12F#] [12A#J	.	12cc#J	.
4A#_	12C#_ [12F#L	12eeL	.
.	12C#_ 12F#_	12ff#	.
.	12AA# 12C#] 12F#J_	12ccc#J	.
2F#] (2A#]	2AA# 2C#	12ff#L	.
.	.	12ee	.
.	.	12eeeJ	.
.	.	12eeL	.
.	.	12cc#	.
.	.	12ccc#J	.
*v	*v	*	*
=129	=129	=129
1AA# 1C# 1F# 1A#)	12cc#L	.
.	12f#	.
.	12ff#J	.
.	12f#L	.
.	12e	.
.	12eeJ	.
.	12f#L	.
.	12e	.
.	12eeJ	.
.	12f#L	.
.	12e	.
.	12eeJ	.
=130	=130	=130
*^	*	*
12DL	[4D	12ff#L	.
[12F#	.	12dd	.
12F#] [12BJ	.	12bJ	.
4B_	12D_ [12F#L	12ddL	.
.	12D_ 12F#_	12ff#	.
.	[12BB 12D_ (12F#J]	12bbJ	.
2B_	2BB_ 2D_ [2F#)	12ff#L	.
.	.	12dd	.
.	.	12dddJ	.
.	.	12ddL	.
.	.	12b	.
.	.	12bbJ	.
*v	*v	*	*
=131	=131	=131
1BB] 1D] 1F#] 1B]	12bL	.
.	12f#	.
.	12ff#J	.
.	12f#L	.
.	12d	.
.	12ddJ	.
.	12f#L	.
.	12d	.
.	12ddJ	.
.	12f#L	.
.	12d	.
.	12ddJ	.
=132	=132	=132
*^	*	*
12DL	[4D	12ggL	.
[12G	.	12dd	.
12G] [12BJ	.	12bJ	.
(4B]	12D_ [12GL	12ddL	.
.	12D_ 12G_	12gg	.
.	12BB 12D] 12GJ_	12bbJ	.
(2G_)	2BB 2D	12ggL	.
.	.	12dd	.
.	.	12dddJ	.
.	.	12ddL	.
.	.	12b	.
.	.	12bbJ	.
*v	*v	*	*
=133	=133	=133
1BB 1D 1G] 1B)	12bL	.
.	12g	.
.	12ggJ	.
.	12gL	.
.	12f	.
.	12ffJ	.
.	12gL	.
.	12d	.
.	12ddJ	.
.	12gL	.
.	12d	.
.	12ddJ	.
=134	=134	=134
*^	*	*
12E-L	[4E-	12cccL	.
[12G	.	12gg	.
12G] [12cJ	.	12ee-J	.
4c_	12E-_ [12GL	12ggL	.
.	12E-_ 12G_	12ccc	.
.	[12C (12E-] 12GJ_	12eee-J	.
2c_	2C_ [2E-) 2G_	12ggL	.
.	.	12ee-	.
.	.	12eee-J	.
.	.	12ee-L	.
.	.	12cc	.
.	.	12cccJ	.
*v	*v	*	*
=135	=135	=135
1C] 1E-] 1G] 1c]	12ccL	.
.	12g	.
.	12ggJ	.
.	12gL	.
.	12e-	.
.	12ee-J	.
.	12gL	.
.	12e-	.
.	12ee-J	.
.	12gL	.
.	12e-	.
.	12ee-J	.
=136	=136	=136
*^	*	*
12A-L	[4A-	12ffL	.
[12d-	.	12dd-	.
12d-] [12fJ	.	12a-J	.
4f_	12A-] 12d-L	12dd-L	.
.	[12A- [12d-	12ff	.
.	12F 12A-] 12d-J_	12aa-J	.
2d-] 2f]	2F 2A-	12ffL	.
.	.	12dd-	.
.	.	12a-J	.
.	.	12ffL	.
.	.	12dd-	.
.	.	12a-J	.
*v	*v	*	*
=137	=137	=137
*M4/4	*M4/4	*M4/4
*^	*	*
12cL	[4c	12ee-L	.
[12e-	.	12cc	.
12e-] [12f#J	.	12aJ	.
4f#_	12c] [12e-L	12ccL	.
.	[12c 12e-_	12ee-	.
.	[12F# 12c_ 12e-J_	12aaJ	.
2f#]	2F#] 2c] 2e-]	12ee-L	.
.	.	12cc	.
.	.	12aJ	.
.	.	12ee-L	.
.	.	12cc	.
.	.	12aJ	.
=138	=138	=138	=138
(12BL	4B	4r	.
[12d	.	.	.
12d] [12gJ	.	.	.
4g_	12B) [12dL	12bL	f
.	12B 12d_	12dd	.
.	12G 12B 12dJ]	12ggJ	.
4B 4d 4g]	[2G	12ddL	.
.	.	12b	.
.	.	12gJ	.
4d	.	12ffL	.
.	.	12b	.
.	.	12gJ	.
=139	=139	=139	=139
4B	4G]	12ffL	.
.	.	12dd	.
.	.	12gJ	.
4G	2.G	12ee-L	.
.	.	12dd	.
.	.	12gJ	.
4c	.	12ee-L	.
.	.	12cc	.
.	.	12gJ	.
4f#	.	12ddL	.
.	.	12cc	.
.	.	12aJ	.
=140	=140	=140	=140
12BBL	(4BB	4r	.
[12D'	.	.	.
12D]) [12GJ	.	.	.
4G_	[12BB [12DL	12BL	f
.	12BB_ 12D_	12d	.
.	12GG 12BB_ 12DJ_	12gJ	.
4BB] 4D] 4G]	[2GG	12dL	.
.	.	12B	.
.	.	12GJ	.
4D	.	12fL	p
.	.	12B	.
.	.	12GJ	.
=141	=141	=141	=141
4BB	4GG]	12fL	.
.	.	12d	.
.	.	12GJ	.
([4GG	4GG	12e-L	.
.	.	12d	.
.	.	12GJ	.
4C	2GG_	12e-L	.
.	.	12c	.
.	.	12GJ	.
4F#	.	12dL	.
.	.	12c	.
.	.	12AJ	.
=142	=142	=142	=142
8G)	8GG]	12dL	.
.	.	12B	.
8r	8r	.	.
.	.	12GJ	.
*	*	*clefF4	*clefF4
(4C	2.r	12cL	.
.	.	12G	.
.	.	12E-J	.
4GG	.	12BL	.
.	.	12G	.
.	.	12DJ	.
4CC)	.	12AL	.
.	.	12E-	.
.	.	12CJ	.
*v	*v	*	*
=143	=143	=143
(4GGG	12GL	.
.	12D	.
.	12BBJ	.
4CC	12F#L	.
.	12E-	.
.	12AAJ	.
4GGG	12GL	.
.	12D	.
.	12BBJ	.
4CC)	12F#L	.
.	12E-	.
.	12AAJ	.
=144	=144	=144
16GGGLL	1BB 1D (1G	pp
16CC	.	.
16BBB	.	.
16AAAJJ	.	.
16GGGLL	.	.
16CC	.	.
16BBB	.	.
16AAAJJ	.	.
16GGGLL	.	.
16CC	.	.
16BBB	.	.
16AAAJJ	.	.
16GGGLL	.	.
16CC	.	.
16BBB	.	.
16AAAJJ	.	.
=145	=145	=145
[1GGG	16BB 16D) 16GLL	.
.	16D	.
.	16E	.
.	16F#JJ	.
.	16GLL	.
.	16D	.
.	16E	.
.	16F#JJ	.
.	16GLL	.
.	16D	.
.	16E	.
.	16F#JJ	.
.	16GLL	.
.	16D	.
.	16E	.
.	16F#JJ	.
=146	=146	=146
16GGGLL]	[1G	.
16CC	.	.
16BBB	.	.
16AAAJJ	.	.
16GGGLL	.	.
16CC	.	.
16BBB	.	.
16AAAJJ	.	.
16GGGLL	.	.
16CC	.	.
16BBB	.	.
16AAAJJ	.	.
16GGGLL	.	.
16CC	.	.
16BBB	.	.
16AAAJJ	.	.
=147	=147	=147
[1GGG	16GLL]	.
.	16F#	.
.	16G	.
.	16AJJ	.
.	16BLL	.
.	16F#	.
.	16G	.
.	16AJJ	.
.	16BLL	.
.	16F#	.
.	16G	.
.	16AJJ	.
.	16BLL	.
.	16F#	.
.	16G	.
.	16AJJ	.
=148	=148	=148
16GGGLL]	8B	.
16CC	.	.
16BBB	8r	.
16AAAJJ	.	.
16GGGLL	8r	.
16CC	.	.
16BBB	(16BLL	.
16AAAJJ	16cJJ	.
16GGGLL	8d')	.
16CC	.	.
16BBB	8r	.
16AAAJJ	.	.
16GGGLL	8r	.
16CC	.	.
*	*clefG2	*clefG2
16BBB	(24dLL	.
.	24e	.
16AAAJJ	.	.
.	24f#JJ	.
=149	=149	=149
16GGGLL	8g')	.
16CC	.	.
16BBB	8r	.
16AAAJJ	.	.
16GGGLL	8r	.
16CC	.	.
16BBB	(16gLL	.
16AAAJJ	16aJJ	.
16GGGLL	8b'L)	.
16CC	.	.
16BBB	(16bL	.
16AAAJJ	16ccJJ	.
16GGGLL	8dd'L)	.
16CC	.	.
16BBB	(24ddL	.
.	24ee	.
16AAAJJ	.	.
.	24ff#JJ	.
=150	=150	=150
16GGGLL	8gg')	.
16CC	.	.
16BBB	8r	.
16AAAJJ	.	.
16GGGLL	8r	.
16CC	.	.
16BBB	(24dLL	.
.	24e	.
16AAAJJ	.	.
.	24f#JJ	.
16GGGLL	8r	.
16CC	.	.
16BBB	8g')	.
16AAAJJ	.	.
16GGGLL	8r	.
16CC	.	.
16BBB	(16gLL	.
16AAAJJ	16aJJ)	.
=151	=151	=151
16GGGLL	8b'	.
16CC	.	.
16BBB	8r	.
16AAAJJ	.	.
16GGGLL	8r	.
16CC	.	.
16BBB	(16bLL	.
16AAAJJ	16ccJJ	.
16GGGLL	8dd'L)	.
16CC	.	.
16BBB	(24ddL	.
.	24ee	.
16AAAJJ	.	.
.	24ff#JJ	.
16GGGLL	8gg'L)	.
16CC	.	.
16BBB	(16ggL	.
16AAAJJ	16aaJJ	.
=152	=152	=152
16GGGLL	4bb')	.
16CC	.	.
16BBB	.	.
16AAAJJ	.	.
16GGGLL	8r	.
16CC	.	.
16BBB	(24ddLL	.
.	24ee	.
16AAAJJ	.	.
.	24ff#JJ	.
16GGGLL	4gg')	.
16CC	.	.
16BBB	.	.
16AAAJJ	.	.
16GGGLL	8r	.
16CC	.	.
16BBB	(16ggLL	.
16AAAJJ	16aaJJ	.
=153	=153	=153
16GGGLL	4bb')	.
16CC	.	.
16BBB	.	.
16AAAJJ	.	.
16GGGLL	8r	.
16CC	.	.
16BBB	(16ggLL	.
16AAAJJ	16aaJJ	.
16GGGLL	8bb'L)	.
16CC	.	.
16BBB	(16bbL	.
16AAAJJ	16cccJJ	.
16GGGLL	8ddd'L)	.
16CC	.	.
16BBB	(16dddL	.
16AAAJJ	16eeeJJ	.
=154	=154	=154
16GGGLL	4fff')	f
16CC	.	.
16BBB	.	.
16AAAJJ	.	.
16GGGLL	8r	.
16CC	.	.
16BBB	(16dddLL	.
16AAAJJ	16eeeJJ	.
16GGGLL	4fff')	.
16CC#	.	.
16BBB	.	.
16AAAJJ	.	.
16GGGLL	8r	.
16CC#	.	.
16BBB	(16dddLL	.
16AAAJJ	16eeeJJ	.
=155	=155	=155
16GGGLL	8fff'L)	.
16DD	.	.
16BBB	(16dddL	.
16AAAJJ	16eeeJJ	.
16GGGLL	8fff'L)	.
16DD	.	.
16BBB	(16dddL	.
16AAAJJ	16eeeJJ	.
16GGGLL	8fff'L)	.
16DD	.	.
16BBB	(16dddL	.
16AAAJJ	16eeeJJ	.
16GGGLL	8fff'L)	.
16DD	.	.
16BBB	(16dddL	.
16AAAJJ	16eeeJJ	.
=156	=156	=156
16GGGLL	16fffLL)	.
16AAA	16eee	.
16BBB	16ddd	.
16CCJJ	16cccJJ	.
16DDLL	16bbLL	.
16CC	16ccc	.
16BBB	16ddd	.
16AAAJJ	16eeeJJ	.
16GGGLL	16fffLL	.
16AAA	16eee	.
16BBB	16ddd	.
16CCJJ	16cccJJ	.
16DDLL	16bbLL	.
16CC	16ccc	.
16BBB	16ddd	.
16AAAJJ	16eeeJJ	.
=157	=157	=157
8GGGL	8fffL	ff
16AAAL	16eeeL	.
16BBBJJ	16dddJJ	.
16CCLL	16cccLL	.
16DD	16bb	.
16EE	16aa	.
16FFJJ	16ggJJ	.
16GGLL	16ffLL	.
16AA	16ee	.
16BB	16dd	.
16CJJ	16ccJJ	.
16DLL	16bLL	.
16E	16a	.
16F	16g	.
16GJJ	16fJJ	.
=158	=158	=158
8C	8e	.
*	*clefF4	*clefF4
8CC 8GGL	8C 8EL	pp
8CC 8GG	8C 8E	.
8CC 8GGJ	8C 8EJ	.
8CC 8GGL	8C 8EL	.
8CC 8GG	8C 8E	.
8CC 8GG	8C 8E	.
8CC 8GGJ	8C 8EJ	.
=159	=159	=159
8CC 8GGL	8C 8EL	.
8CC 8GG	8C 8E	.
8CC 8GG	8C 8E	.
8CC 8GGJ	8C 8EJ	.
8CC 8GGL	8C 8EL	.
8CC 8GG	8C 8E	.
8CC 8AA	8D 8F#	.
8CC 8AAJ	8D 8F#J	.
=160	=160	=160
8BBB 8GGL	4.D (4.G	.
8BBB 8GG	.	.
8BBB 8GG	.	.
8BBB 8GGJ	16BLL	.
.	16AJJ	.
8BBB 8GGL	8r	.
8BBB 8GG	4r	.
8BBB 8GG	.	.
8BBB 8GGJ	8G')	.
*	*clefG2	*clefG2
=161	=161	=161
8BBB 8GGL	([4ddd)	.
8BBB 8GG	.	.
8BBB 8GG	16dddLL]	.
.	16ccc	.
8BBB 8GGJ	16bb	.
.	16aaJJ	.
8BBB 8GGL	4gg')	.
8BBB 8GG	.	.
8BBB 8GG	4r	.
8BBB 8GGJ	.	.
*	*clefF4	*clefF4
=162	=162	=162
8BBB- 8FFL	8BB- 8DL	pp
8BBB- 8FF	8BB- 8D	.
8BBB- 8FF	8BB- 8D	.
8BBB- 8FFJ	8BB- 8DJ	.
8BBB- 8FFL	8BB- 8DL	.
8BBB- 8FF	8BB- 8D	.
8BBB- 8FF	8BB- 8D	.
8BBB- 8FFJ	8BB- 8DJ	.
=163	=163	=163
8BBB- 8FFL	8BB- 8DL	.
8BBB- 8FF	8BB- 8D	.
8BBB- 8FF	8BB- 8D	.
8BBB- 8FFJ	8BB- 8DJ	.
8BBB- 8FFL	8BB- 8DL	.
8BBB- 8FF	8BB- 8D	.
8BBB- 8GG	8C 8E	.
8BBB- 8GGJ	8C 8EJ	.
=164	=164	=164
8AAA 8FFL	4.C (4.F	.
8AAA 8FF	.	.
8AAA 8FF	.	.
8AAA 8FFJ	16ALL	.
.	16GJJ	.
8AAA 8FFL	8r	.
8AAA 8FF	4r	.
8AAA 8FF	.	.
8AAA 8FFJ	8F')	.
*	*clefG2	*clefG2
=165	=165	=165
8AAA- 8FFL	([4ccc)	.
8AAA- 8FF	.	.
8AAA- 8FF	16cccLL]	.
.	16bb-	.
8AAA- 8FFJ	16aa-	.
.	16ggJJ	.
8AAA- 8FFL	4ff')	.
8AAA- 8FF	.	.
8AAA- 8FF	4r	.
8AAA- 8FFJ	.	.
=166	=166	=166
8GGG 8FFL	2.fff)	.
8GGG 8FF	.	.
8GGG 8FF	.	.
8GGG 8FFJ	.	.
8GGG 8FFL	.	.
8GGG 8FF	.	.
8AAA- 8FF	16fffLL	.
.	16eee-	.
8AAA- 8FFJ	16ddd	.
.	16cccJJ	.
=167	=167	=167
8GGG 8FFL	16bbLL	.
.	16ccc	.
8GGG 8FF	16ddd	.
.	16eee-JJ	.
8AAA- 8FF	16fffLL	.
.	16eee-	.
8AAA- 8FFJ	16ddd	.
.	16cccJJ	.
8GGG 8FFL	16bbLL	.
.	16ccc	.
8GGG 8FF	16ddd	.
.	16eee-JJ	.
8AAA- 8FF	16fffLL	.
.	16eee-	.
8AAA- 8FFJ	16ddd	.
.	16cccJJ	.
=168	=168	=168
4GGG 4FF	16bbLL	f
.	16ccc	.
.	16ddd	.
.	16eee-JJ	.
[2GG [2G	16fffLL	.
.	16eee-	.
.	16ddd	.
.	16cccJJ	.
.	16bbLL	.
.	16aa-	.
.	16gg	.
.	16ffJJ	.
8GG] 8GL]	16ee-LL	.
.	16dd	.
(16AL	16cc	.
16BJJ	16bJJ	.
=169	=169	=169
8c')	8cc'	.
8r	8r	.
8GG' 8G'	8g'	.
8r	8r	.
8EE-' 8E-'	8e-'	.
8r	8r	.
8CC' 8C'	8c'	.
8r	8r	.
=170	=170	=170
1AAA-; 1AA-;	1A-;	p
=171	=171	=171
8d-'	8dd-'	pp
8r	8r	.
8A-'	8a-'	.
8r	8r	.
8F'	8f'	.
8r	8r	.
8D-'	8d-'	.
8r	8r	.
=172	=172	=172
1BBB-; 1BB-;	1B-;	.
=173	=173	=173
8e-	16r	.
.	16gLL	.
8r	16b-	.
.	16ee-JJ	.
8B-	16r	.
.	16gLL	.
8r	16b-	.
.	16ee-JJ	.
8G	16r	.
.	16gLL	.
8r	16b-	.
.	16ee-JJ	.
8E-	16r	.
.	16gLL	.
8r	16b-	.
.	16ee-JJ	.
=174	=174	=174
8F	16r	.
.	16fLL	.
8r	16a-	.
.	16ee-JJ	.
8A-	16r	.
.	16fLL	.
8r	16b	.
.	16ddJJ	.
8A	16r	.
.	16e-LL	.
8r	16f#	.
.	16ddJJ	.
8F#	16r	.
.	16e-LL	.
8r	16a	.
.	16ccJJ	.
=175	=175	=175
8G	16r	.
.	16dLL	.
8r	16g	.
.	16ccJJ	.
8F#	16r	.
.	16dLL	.
8r	16g	.
.	16ccJJ	.
8G	16r	.
.	16dLL	.
8r	16g	.
.	16bJJ	.
8GG	16r	.
.	16dLL	.
8r	16f	.
.	16bJJ	.
=176	=176	=176
8CC 8C	8e 8cc	f
16CLL	16eLL	pp
16GJJ	16cJJ	.
16CLL	16eLL	.
16G	16c	.
16C	16e	.
16GJJ	16cJJ	.
16CLL	16eLL	.
16G	16c	.
16C	16e	.
16GJJ	16cJJ	.
16CLL	16eLL	.
16G	16c	.
16C	16e	.
16GJJ	16cJJ	.
=177	=177	=177
16CLL	16eLL	.
16G	16c	.
16C	16e	.
16GJJ	16cJJ	.
16CLL	16eLL	.
16G	16c	.
16C	16e	.
16GJJ	16cJJ	.
16CLL	16eLL	.
16G	16c	.
16C	16e	.
16GJJ	16cJJ	.
16CLL	16f#LL	.
16A	16d	.
16C	16f#	.
16AJJ	16dJJ	.
=178	=178	=178
16BB' 16D'LL	(4.g	.
16G	.	.
16BB 16D	.	.
16GJJ	.	.
16BB 16DLL	.	.
16G	.	.
16BB 16D	16bLL	.
16GJJ	16aJJ	.
16BB 16DLL	8g')	.
16G	.	.
16BB 16D	8r	.
16GJJ	.	.
16BB 16DLL	4r	.
16G	.	.
16BB 16D	.	.
16GJJ	.	.
=179	=179	=179
16BB 16DLL	([4ddd)	.
16G	.	.
16BB 16D	.	.
16GJJ	.	.
16BB 16DLL	16dddLL]	.
16G	16ccc	.
16BB 16D	16bb	.
16GJJ	16aaJJ	.
16BB 16DLL	4gg')	.
16G	.	.
16BB 16D	.	.
16GJJ	.	.
16BB 16DLL	4r	.
16G	.	.
16BB 16D	.	.
16GJJ	.	.
=180	=180	=180
8DD 8D	16fLL	pp
.	16d	.
16DLL	16f	.
16AJJ	16dJJ	.
16DLL	16fLL	.
16A	16d	.
16D	16f	.
16AJJ	16dJJ	.
16DLL	16fLL	.
16A	16d	.
16D	16f	.
16AJJ	16dJJ	.
16DLL	16fLL	.
16A	16d	.
16D	16f	.
16AJJ	16dJJ	.
=181	=181	=181
16DLL	16fLL	.
16A	16d	.
16D	16f	.
16AJJ	16dJJ	.
16DLL	16fLL	.
16A	16d	.
16D	16f	.
16AJJ	16dJJ	.
16DLL	16fLL	.
16A	16d	.
16D	16f	.
16AJJ	16dJJ	.
16DLL	16g#LL	.
16B	16e	.
16D	16g#	.
16BJJ	16eJJ	.
=182	=182	=182
16C 16ELL	(4.a	.
16A	.	.
16C 16E	.	.
16AJJ	.	.
16C 16ELL	.	.
16A	.	.
16C 16E	16ccLL	.
16AJJ	16bJJ	.
16C 16ELL	8a')	.
16A	.	.
16C 16E	8r	.
16AJJ	.	.
16C 16ELL	4r	.
16A	.	.
16C 16E	.	.
16AJJ	.	.
=183	=183	=183
16C 16ELL	([4eee)	.
16A	.	.
16C 16E	.	.
16AJJ	.	.
16C 16ELL	16eeeLL]	.
16A	16ddd	.
16C 16E	16ccc	.
16AJJ	16bbJJ	.
16C 16ELL	4aa')	.
16A	.	.
16C 16E	.	.
16AJJ	.	.
16C 16ELL	4r	.
16A	.	.
16C 16E	.	.
16AJJ	.	.
=184	=184	=184
16F 16ALL	([4ccc)	.
16c	.	.
16F 16A	.	.
16cJJ	.	.
16F 16ALL	16cccLL]	.
16c	16bb	.
16F 16A	16aa	.
16cJJ	16gg#JJ	.
16F 16ALL	4aa')	.
16d	.	.
16F 16A	.	.
16dJJ	.	.
16F 16ALL	4r	.
16d	.	.
16F 16A	.	.
16dJJ	.	.
=185	=185	=185
16F 16ALL	[4ccc)	.
16d#	.	.
16F 16A	.	.
16d#JJ	.	.
16F 16ALL	16cccLL]	.
16d#	16bb	.
16F 16A	16aa	.
16d#JJ	16gg#JJ	.
16F 16ALL	16aaLL	.
16c	16gg#	.
16F 16A	16aa	.
16cJJ	16bbJJ	.
16FLL	16cccLL	.
16A	16ccc#	.
16F	16ddd	.
16AJJ	16ddd#JJ	.
=186	=186	=186
16ELL	[4eee	p
16G#	.	.
16B	.	.
16eJJ	.	.
16ELL	16eeeLL]	.
16G#	16ddd	.
16B	16ccc	.
16eJJ	16bbJJ	.
16ELL	16cccLL	.
16A	16bb	.
16c	16aa	.
16eJJ	16gg#JJ	.
16ELL	16aaLL	.
16A	16ccc	.
16c	16bb	.
16eJJ	16aaJJ	.
=187	=187	=187
16ELL	16gg#LL	.
16B	16ff#	.
16d	16ee	.
16eJJ	16dd#JJ	.
16ELL	16eeLL	.
16B	16ff#	.
16d	16gg	.
16eJJ	16gg#JJ	.
16ELL	16aaLL	.
16A	16gg#	.
16c	16aa	.
16eJJ	16bbJJ	.
16ELL	16cccLL	.
16A	16ccc#	.
16c	16ddd	.
16eJJ	16ddd#JJ	.
=188	=188	=188
16ELL	16eeeLL	.
16G#	16ddd#	.
16B	16eee	.
16eJJ	16ddd#JJ	.
16ELL	16eeeLL	.
16G#	16ddd	.
16B	16ccc	.
16eJJ	16bbJJ	.
16ELL	16cccLL	.
16A	16bb	.
16c	16aa	.
16eJJ	16gg#JJ	.
16ELL	16aaLL	.
16A	16ccc	.
16c	16bb	.
16eJJ	16aaJJ	.
=189	=189	=189
16ELL	16gg#LL	.
16B	16ff#	.
16d	16ee	.
16eJJ	16dd#JJ	.
16ELL	16eeLL	.
16B	16ff#	.
16d	16gg	.
16eJJ	16gg#JJ	.
16ELL	16aaLL	.
16A	16gg#	.
16c	16aa	.
16eJJ	16bbJJ	.
16ELL	16cccLL	.
16A	16ccc#	.
16c	16ddd	.
16eJJ	16ddd#JJ	.
=190	=190	=190
16ELL	16eeeLL	.
16G#	16bb	.
16B	16gg#	.
16eJJ	16eeJJ	.
16d#LL	16dd#LL	.
16e	16ee	.
16c	16aa	.
16AJJ	16cccJJ	.
16ELL	16eeeLL	.
16G#	16bb	.
16B	16gg#	.
16eJJ	16eeJJ	.
16d#LL	16dd#LL	.
16e	16ee	.
16c	16aa	.
16AJJ	16cccJJ	.
=191	=191	=191
16ELL	16eeeLL	f
16G#	16bb	.
16B	16gg#	.
16eJJ	16eeJJ	.
16ELL	16eeeLL	.
16A	16ccc	.
16c	16aa	.
16eJJ	16eeJJ	.
16ELL	16eeeLL	.
16G#	16bb	.
16B	16gg#	.
16eJJ	16eeJJ	.
16ELL	16eeeLL	.
16A	16ccc	.
16c	16aa	.
16eJJ	16eeJJ	.
=192	=192	=192
4E 4G# 4B 4e	16eeeLL	.
.	16bb	.
.	16gg#	.
.	16eeJJ	.
4r	16bbLL	.
.	16gg#	.
.	16ee	.
.	16bJJ	.
2r	16gg#LL	.
.	16ee	.
.	16b	.
.	16g#JJ	.
.	16eeLL	.
.	16b	.
.	16g#	.
.	16eJJ	.
=193	=193	=193
2r	16bLL	.
.	16g#	.
.	16e	.
.	16BJJ	.
.	16g#LL	.
.	16e	.
.	16B	.
.	16G#JJ	.
4r	16eLL	.
.	16B	.
.	16G#	.
.	16EJJ	.
16EELL	4r	.
16GG#	.	.
16BB	.	.
16EJJ	.	.
=194	=194	=194
8EE''L	2r	.
8E''	.	.
8FF#''	.	.
8F#''J	.	.
8GG#''L	8ee''L	.
8G#''J	8e''	.
4r	8ff#''	.
.	8f#''J	.
=195	=195	=195
8GG#''L	8gg#''L	.
8G#''	8g#''J	.
8AA''	4r	.
8A''J	.	.
8BB''L	8gg#''L	.
8B''J	8g#''	.
4r	8aa''	.
.	8aJ	.
=196	=196	=196
2r	8bb''L	p
.	8b''	.
.	8ccc#''	.
.	8cc#''J	.
8BB''L	8ddd''L	.
8B''	8dd''	.
8C#''	8ddd''	.
8c#''J	8ee''J	.
=197	=197	=197
8D''L	8ddd''L	.
8d''	8ff#''	.
8E''	8ddd''	.
8e''J	8gg#''J	.
8F#''L	8ddd''L	.
8f#''	8aa''	.
8G#''	8ddd	.
8g#''J	8bb''J	.
=198	=198	=198
2A 2c# 2e (2a	2cc# 2ee 2aa (2ccc#	.
4E 4G# 4B 4e	4b 4ee 4gg# 4bb	.
4F# 4A 4c# 4f#	4a 4cc# 4ff# 4aa	.
=199	=199	=199
2C# 2E# 2G# 2c#	2g# 2b 2ee# 2gg#	.
2D 2F# 2A 2d)	2f# 2a 2dd 2ff#)	.
=200	=200	=200
2BB 2E 2G# (2B	2g# 2dd 2ee (2gg#	.
4C# 4E 4A 4c#	4a 4ee 4aa	.
4D 4F# 4B 4d	4b 4ff# 4aa 4bb	.
=201	=201	=201
*^	*^	*
*	*	*	*^	*
2A 2c# 2e	1E	2aa 2ccc#	[2ee	2cc#	.
2G# 2B 2e)	.	(2gg# 2bb)	4ee]	2b	.
.	.	.	4dd)	.	.
*	*	*	*v	*v	*
*v	*v	*	*	*
*	*v	*v	*
=202	=202	=202
2A (2c	2e 2a 2cc	p
4E 4G 4B	4e 4g 4b	.
4F 4A	4c 4f 4a	.
=203	=203	=203
2C 2E 2G	2c 2e 2g	.
2D 2F	2A 2d 2f	.
=204	=204	=204
*^	*^	*
4C 4E	1GG	2g	4c (4e	.
2.D 2.F)	.	.	2.d 2.f)	.
.	.	4a	.	.
.	.	4b	.	.
*	*	*v	*v	*
=205	=205	=205	=205
4E	4C	12e' 12g' 12cc'L	p
.	.	12dd'	.
.	.	12ee'J	.
4r	4r	12ff'L	.
.	.	12gg'	.
.	.	12aa'J	.
2r	2r	12bb-'L	.
.	.	12bb'	.
.	.	12ccc'J	.
.	.	12ccc#'L	.
.	.	12ddd'	.
.	.	12ddd#'J	.
*v	*v	*	*
*clefG2	*	*
=206	=206	=206
*	*^	*
2cc (2ee	(12eeeL	2ccc	.
.	12ddd#	.	.
.	12eeeJ	.	.
.	12fffL	.	.
.	12ddd#	.	.
.	12eeeJ	.	.
4g# 4b 4dd 4ff	12bbL	4bb	.
.	12eee	.	.
.	12dddJ	.	.
4a 4cc 4ee	12aaL	4aa	.
.	12ddd	.	.
.	12cccJ	.	.
=207	=207	=207	=207
2e 2g# 2b 2dd	12gg#L	2gg#	.
.	12aa#	.	.
.	12bbJ	.	.
.	12cccL	.	.
.	12aa#	.	.
.	12bbJ	.	.
2f 2a 2cc)	12ffL	2ff	.
.	12gg#	.	.
.	12aaJ	.	.
.	12bbL	.	.
.	12gg#	.	.
.	12aaJ	.	.
=208	=208	=208	=208
(2d 2f 2g 2b	12ffL	2ff	.
.	12aa#	.	.
.	12bbJ	.	.
.	12cccL	.	.
.	12aa#	.	.
.	12bbJ	.	.
4e 4g 4cc	12ggL	4gg	.
.	12ddd	.	.
.	12cccJ	.	.
4f) 4a 4cc 4dd	12aaL	4aa	.
.	12eee	.	.
.	12dddJ	.	.
=209	=209	=209	=209
[2g 2cc (2ee	12eeeL	2ccc	.
.	12ddd#	.	.
.	12eeeJ	.	.
.	12gggL	.	.
.	12fff	.	.
.	12eeeJ	.	.
4g] 4b 4dd)	12dddL	12bbL	.
.	12ccc	12aa	.
.	12bbJ	12ggJ	.
*clefF4	*	*	*
(12GL	12aaL	12ffL	.
12A	12gg	12ee	.
12BJ)	12ffJ)	12ddJ	.
=210	=210	=210	=210
2c (2e	(12eeL	2g	p
.	12dd#	.	.
.	12eeJ	.	.
.	12ffL	.	.
.	12dd#	.	.
.	12eeJ	.	.
4G# 4B 4d	12fL	4f	.
.	12ee	.	.
.	12ddJ	.	.
4A 4c	12eL	4e	.
.	12dd	.	.
.	12ccJ	.	.
=211	=211	=211	=211
2E 2G# 2B	12dL	2d	.
.	12a#	.	.
.	12bJ	.	.
.	12ccL	.	.
.	12a#	.	.
.	12bJ	.	.
2F 2A)	12cL	2c	.
.	12g#	.	.
.	12aJ	.	.
.	12bL	.	.
.	12g#	.	.
.	12aJ	.	.
*	*v	*v	*
=212	=212	=212
*^	*	*
4C (4E	1GG	12cL	.
.	.	12e	.
.	.	12gJ	.
2.D 2.F)	.	12dL	.
.	.	12f	.
.	.	12gJ	.
.	.	12dL	.
.	.	12f	.
.	.	12aJ	.
.	.	12dL	.
.	.	12f	.
.	.	12bJ)	.
*v	*v	*	*
=213	=213	=213
4CC 4C	12e 12ccL	f
.	12G	.
.	12EJ	.
2GG	12GL	.
.	12c	.
.	12eJ	.
.	12dL	.
.	12B	.
.	12GJ	.
[4GG	12BL	.
.	12d	.
.	12fJ	.
=214	=214	=214
4GG]	12eL	.
.	12c	.
.	12GJ	.
2GG	12cL	.
.	12e	.
.	12gJ	.
.	12fL	.
.	12d	.
.	12BJ	.
4GG	12bL	.
.	12f	.
.	12dJ	.
=215	=215	=215
12CL	4e 4cc	.
12GG	.	.
12EEJ	.	.
12GGL	2g	.
12C	.	.
12EJ	.	.
12DL	.	.
12BB	.	.
12GGJ	.	.
12BBL	[4g	.
12D	.	.
12FJ	.	.
=216	=216	=216
12EL	4g]	.
12C	.	.
12GGJ	.	.
12CL	2g	.
12E	.	.
12GJ	.	.
12FL	.	.
12D	.	.
12BBJ	.	.
12BL	4g	.
12F	.	.
12DJ	.	.
=217	=217	=217
12EL	12ccL	.
12G	12g	.
12cJ	12eJ	.
12GL	12gL	.
12E	12cc	.
12CJ	12eeJ	.
12BBL	12ddL	.
12D	12b	.
12FJ	12gJ	.
12DL	12bL	.
12BB	12dd	.
12GGJ	12ffJ	.
=218	=218	=218
12CL	12eeL	.
12E	12cc	.
12GJ	12gJ	.
12EL	12ccL	.
12C	12ee	.
12GGJ	12ggJ	.
12DL	12ffL	.
12F	12dd	.
12GJ	12bJ	.
12FL	12bbL	.
12G	12gg	.
12dJ	12ddJ	.
=219	=219	=219
12EL	12cccL	.
12G	12gg	.
12cJ	12eeJ	.
12CL	12ggL	.
12E	12ee	.
12GJ	12ccJ	.
12DL	12ffL	.
12F	12dd	.
12GJ	12bJ	.
12FL	12bbL	.
12G	12gg	.
12dJ	12ddJ	.
=220	=220	=220
12EL	12cccL	.
12G	12gg	.
12cJ	12eeJ	.
12CL	12ggL	.
12E	12ee	.
12GJ	12ccJ	.
12DL	12ffL	.
12F	12dd	.
12GJ	12bJ	.
12FL	12bbL	.
12G	12gg	.
12dJ	12ddJ	.
=221	=221	=221
16ELL	16cccLL	.
16G	16gg	.
16C	16ee	.
16GJJ	16ccJJ	.
16DLL	16ffLL	.
16G	16dd	.
16F	16bb	.
16GJJ	16ggJJ	.
16ELL	16cccLL	.
16G	16gg	.
16C	16ee	.
16GJJ	16ccJJ	.
16DLL	16ffLL	.
16G	16dd	.
16F	16bb	.
16GJJ	16ggJJ	.
=222	=222	=222
16ELL	16cccLL	.
16G	16gg	.
16F	16bb	.
16GJJ	16ggJJ	.
16ELL	16cccLL	.
16G	16gg	.
16F	16bb	.
16GJJ	16ggJJ	.
16ELL	16cccLL	.
16G	16gg	.
16F	16bb	.
16GJJ	16ggJJ	.
16ELL	16cccLL	.
16G	16gg	.
16F	16bb	.
16GJJ	16ggJJ	.
=223	=223	=223
16ELL	16cccLL	f
16GJJ	16gg	.
16EELL	16bb-	.
16CJJ	16ggJJ	.
16EELL	16bb-LL	.
16C	16gg	.
16EE	16bb-	.
16CJJ	16ggJJ	.
16EELL	16bb-LL	.
16C	16gg	.
16EE	16bb-	.
16CJJ	16ggJJ	.
16EELL	16bb-LL	.
16C	16gg	.
16EE	16bb-	.
16CJJ	16ggJJ	.
=224	=224	=224
16EELL	8bb-L	.
16C	.	.
16EE	16aaL	.
16CJJ	16ggJJ	.
16EELL	16ffLL	.
16C	16ee	.
16EE	16dd	.
16CJJ	16ccJJ	.
16EELL	16b-LL	.
16C	16a	.
16EE	16g	.
16CJJ	16fJJ	.
16EELL	16eLL	.
16C	16d	.
16EE	16c	.
16CJJ	16B-JJ	.
=225	=225	=225
8FF 8AA 8CL	16ALL	ff
.	16B	.
8FF 8AA 8CJ	16c	.
.	16BJJ	.
8r	16cLL	.
.	16e	.
8FF 8AA 8C	16f	.
.	16eJJ	.
8FF 8AA 8CL	16fLL	.
.	16g#	.
8FF 8AA 8CJ	16a	.
.	16g#JJ	.
8r	16aLL	.
.	16b	.
8FF 8AA 8C	16cc	.
.	16bJJ	.
=226	=226	=226
8FF 8AA 8CL	16ccLL	.
.	16ee	.
8FF 8AA 8CJ	16ff	.
.	16eeJJ	.
8r	16ffLL	.
.	16gg#	.
8FF 8AA 8C	16aa	.
.	16gg#JJ	.
8FF 8AA 8CL	16aaLL	.
.	16bb	.
8FF 8AA 8CJ	16ccc	.
.	16bbJJ	.
8r	16cccLL	.
.	16bb	.
8FF 8AA 8C	16aa	.
.	16gg#JJ	.
=227	=227	=227
8FF# 8AA 8C 8DL	16aaLL	.
.	16gg#	.
8FF# 8AA 8C 8DJ	16aa	.
.	16bbJJ	.
8r	16cccLL	.
.	16bb	.
8FF# 8AA 8C 8D	16aa	.
.	16gg#JJ	.
8FF# 8AA 8C 8DL	16aaLL	.
.	16gg#	.
8FF# 8AA 8C 8DJ	16aa	.
.	16bbJJ	.
8r	16cccLL	.
.	16bb	.
8FF# 8AA 8C 8D	16aa	.
.	16gg#JJ	.
=228	=228	=228
8FF# 8AA 8C 8DL	16aaLL	.
.	16gg#	.
8FF# 8AA 8C 8DJ	16aa	.
.	16bbJJ	.
8r	16cccLL	.
.	16bb	.
8FF# 8AA 8C 8D	16aa	.
.	16gg#JJ	.
8FF# 8AA 8C 8DL	16aaLL	.
.	16gg#	.
8FF# 8AA 8C 8DJ	16aa	.
.	16bbJJ	.
8r	16cccLL	.
.	16bb	.
8FF# 8AA 8C 8D	16ccc	.
.	16aaJJ	.
=229	=229	=229
16GGLL	8g' 8gg'L	.
16C	.	.
16E	8g' 8gg'	.
16GJJ	.	.
16GGLL	8e' 8ee'	.
16C	.	.
16E	8c' 8cc'J	.
16GJJ	.	.
16GGLL	8cc' 8ccc'L	.
16C	.	.
16E	8cc' 8ccc'	.
16GJJ	.	.
16GGLL	8g' 8gg'	.
16C	.	.
16E	8e' 8ee'J	.
16GJJ	.	.
=230	=230	=230
16GGLL	8g' 8gg'L	.
16C	.	.
16E	8g' 8gg'	.
16GJJ	.	.
16GGLL	8e' 8ee'	.
16C	.	.
16E	8c' 8cc'J	.
16GJJ	.	.
8E'L	8cc' 8ccc'L	.
8E'	8cc' 8ccc'	.
8C'	8g' 8gg'	.
8GG'J	8e' 8ee'J	.
=231	=231	=231
8G'L	16r	.
*	*8va	*
.	16cccLL	.
8E'	16eee	.
.	16cccJJ	.
8c'	16gggLL	.
.	16eee	.
8G'J	16ggg	.
.	16eeeJJ	.
*clefG2	*	*
8e'L	16gggLL	.
.	16eee	.
8c'	16ggg	.
.	16eeeJJ	.
8g'	16gggLL	.
.	16eee	.
8e'J	16ggg	.
.	16eeeJJ	.
=232	=232	=232
8cc'L	16gggLL	.
.	16eee	.
8g'	16ggg	.
.	16eeeJJ	.
8ee'	16gggLL	.
.	16eee	.
8cc'J	16ggg	.
.	16eeeJJ	.
8gg'L	16gggLL	.
.	16eee	.
8ee'	16ggg	.
.	16eeeJJ	.
8ccc'	16gggLL	.
.	16eee	.
8gg'J	16ggg	.
.	16eeeJJ	.
=233	=233	=233
8bb'L	16r	.
.	16fffLL	.
8gg'	16ggg	.
.	16fffJJ	.
8bb'	16aaa-LL	.
.	16fff	.
8gg'J	16ggg	.
.	16fffJJ	.
8bb'L	16aaa-LL	.
.	16fff	.
8gg'	16ggg	.
.	16fffJJ	.
8bb'	16aaa-LL	.
.	16fff	.
8gg'J	16ggg	.
.	16fffJJ	.
=234	=234	=234
8bb'L	16aaa-LL	pp
.	16fff	.
8gg'	16ggg	.
.	16fffJJ	.
8bb'	16aaa-LL	.
.	16fff	.
8gg'J	16ggg	.
.	16fffJJ	.
8bb'L	16aaa-LL	.
.	16fff	.
8gg'	16ggg	.
.	16fffJJ	.
8bb'	16aaa-LL	.
.	16fff	.
8gg'J	16ggg	.
.	16fffJJ	.
=235	=235	=235
[1bb	16aaaLL	.
.	16fff	.
.	16ggg	.
.	16fffJJ	.
.	16aaaLL	.
.	16fff	.
.	16ggg	.
.	16fffJJ	.
.	16aaaLL	.
.	16fff	.
.	16ggg	.
.	16fffJJ	.
.	16aaaLL	.
.	16fff	.
.	16ggg	.
.	16fffJJ	.
=236	=236	=236
1bb]	8aaaL	.
.	8fff 8ggg	.
.	8fff 8ggg	.
.	8fff 8gggJ	.
.	8fff 8gggL	.
.	8fff 8ggg	.
.	8fff 8ggg	.
.	8fff 8gggJ	.
=237	=237	=237
*	*X8va	*
*^	*	*
(2cc	[1c	2.ccc	.
2e 2g 2b-	.	.	.
.	.	16cccLL	.
.	.	16bb-	.
.	.	16aa-	.
.	.	16ggJJ	.
=238	=238	=238	=238
2f 2a-	1c]	16aa-LL	.
.	.	16gg	.
.	.	16ff	.
.	.	16eeJJ	.
.	.	16ffLL	.
.	.	16gg	.
.	.	16aa-	.
.	.	16bb-JJ	.
2e 2g 2b-	.	16cccLL	.
.	.	16ddd-	.
.	.	16ccc	.
.	.	16bbJJ	.
.	.	16cccLL	.
.	.	16bb-	.
.	.	16aa-	.
.	.	16ggJJ	.
*v	*v	*	*
=239	=239	=239
*	*^	*
4f 4a-)	16aa-LL	2r	.
.	16bb-	.	.
.	16aa-	.	.
.	16ggJJ	.	.
4r	16ffLL	.	.
.	16ee	.	.
.	16ff	.	.
.	16ggJJ	.	.
*clefF4	*	*	*
2F 2A- 2d- (2f	2a-	(4aa-	.
.	.	8ffL	.
.	.	8dd-J	.
=240	=240	=240	=240
2G 2c 2e-	4gg	2g	.
.	8ee-L	.	.
.	8ccJ	.	.
2G 2B 2d)	4ff	2f	.
.	8ddL	.	.
.	8bJ)	.	.
*	*v	*v	*
=241	=241	=241
*^	*	*
(2c	[1C	2.cc	.
2E 2G 2B-	.	.	.
.	.	16ccLL	.
.	.	16b-	.
.	.	16a	.
.	.	16gJJ	.
=242	=242	=242	=242
2F 2A	1C]	16aLL	.
.	.	16g	.
.	.	16f	.
.	.	16eJJ	.
.	.	16fLL	.
.	.	16g	.
.	.	16a	.
.	.	16b-JJ	.
2E 2G 2B-)	.	16ccLL	.
.	.	16dd	.
.	.	16cc	.
.	.	16bJJ	.
.	.	16ccLL	.
.	.	16b-	.
.	.	16a	.
.	.	16gJJ	.
=243	=243	=243	=243
*	*	*^	*
4A	4F	16aLL	2r	.
.	.	16b-	.	.
.	.	16a	.	.
.	.	16gJJ	.	.
4r	4r	16fLL	.	.
.	.	16e	.	.
.	.	16f	.	.
.	.	16gJJ	.	.
2r	2FF 2AA (2D	(4a	2A	.
.	.	8fL	.	.
.	.	8dJ	.	.
=244	=244	=244	=244	=244
2C 2E	1GG	4g	1G	.
.	.	8eL	.	.
.	.	8cJ	.	.
2D 2F)	.	4f	.	.
.	.	8dL	.	.
.	.	8BJ	.	.
*	*	*v	*v	*
=245	=245	=245	=245
4E	4C	4G 4c	.
[4C	4EE	8ccL	.
.	.	8bJ	.
(8CL]	2FF	4a	.
8D	.	.	.
8E	.	8fL	.
8FJ)	.	8dJ	.
=246	=246	=246	=246
2E (2G	1GG	4g	p
.	.	8eL	.
.	.	8cJ	.
2D 2F	.	4f	.
.	.	8dL	.
.	.	8BJ	.
=247	=247	=247	=247
4E)	4C	4c	.
[4F	4AA	(8ffL)	.
.	.	8eeJ	.
(8FL]	2BB-	4dd	.
8G	.	.	.
8A	.	8b-L	.
8B-J)	.	8gJ	.
=248	=248	=248	=248
2A (2c	1C	4cc	p
.	.	8aL	.
.	.	8fJ	.
2G 2B-	.	4b-	.
.	.	8gL	.
.	.	8eJ	.
=249	=249	=249	=249
4A-)	4F	4f)	.
[4F	4AA-	(8ffL	.
.	.	8ee-J	.
(8FL]	2BB-	4dd-	.
8G	.	.	.
8A-	.	8b-L	.
8B-J)	.	8gJ	.
=250	=250	=250	=250
2A- (2c	1C	4cc	p
.	.	8a-L	.
.	.	8fJ	.
2G 2B-)	.	4b-	.
.	.	8gL	.
.	.	8eJ	.
*v	*v	*	*
=251	=251	=251
8D- 8F 8A-	8f)	.
*	*clefF4	*clefF4
8DD- 8AA-L	8D- 8FL	pp
8DD- 8AA-	8D- 8F	.
8DD- 8AA-J	8D- 8FJ	.
8DD- 8AA-L	8D- 8FL	.
8DD- 8AA-	8D- 8F	.
8DD- 8AA-	8D- 8F	.
8DD- 8AA-J	8D- 8FJ	.
=252	=252	=252
8DD- 8AA-L	8D- 8FL	.
8DD- 8AA-	8D- 8F	.
8DD- 8AA-	8D- 8F	.
8DD- 8AA-J	8D- 8FJ	.
8DD- 8AA-L	8D- 8FL	.
8DD- 8AA-	8D- 8F	.
8DD- 8BB-	8E- 8G	.
8DD- 8BB-J	8E- 8GJ	.
=253	=253	=253
8CC 8EE- 8AA-L	4.E- (4.A-	.
8CC 8EE- 8AA-	.	.
8CC 8EE- 8AA-	.	.
8CC 8EE- 8AA-J	16cLL	.
.	16B-JJ	.
8CC 8EE- 8AA-L	8A-')	.
8CC 8EE- 8AA-	8r	.
8CC 8EE- 8AA-	4r	.
8CC 8EE- 8AA-J	.	.
*	*clefG2	*clefG2
=254	=254	=254
8CC 8EE- 8FF 8AAL	([4eee-)	f
8CC 8EE- 8FF 8AA	.	.
8CC 8EE- 8FF 8AA	16eee-LL]	.
.	16ddd-	.
8CC 8EE- 8FF 8AAJ	16ccc	.
.	16bb-JJ	.
8CC 8EE- 8FF 8AAL	4aa')	.
8CC 8EE- 8FF 8AA	.	.
8CC 8EE- 8FF 8AA	4r	.
8CC 8EE- 8FF 8AAJ	.	.
*	*clefF4	*clefF4
=255	=255	=255
8DD- 8FF 8BB-L	(4.B-	f
8DD- 8FF 8BB-	.	.
8DD- 8FF 8BB-	.	.
8DD- 8FF 8BB-J	16d-LL	.
.	16cJJ	.
8DD- 8FF 8BB-L	8B-')	.
8DD- 8FF 8BB-	8r	.
8DD- 8FF 8BB-	4r	.
8DD- 8FF 8BB-J	.	.
*	*clefG2	*clefG2
=256	=256	=256
8DD 8FF 8BBL	([4fff)	f
8DD 8FF 8BB	.	.
8DD 8FF 8BB	16fffLL]	.
.	16eee-	.
8DD 8FF 8BBJ	16ddd	.
.	16cccJJ	.
8DD 8FF 8BBL	4bb')	.
8DD 8FF 8BB	.	.
8DD 8FF 8BB	4r	.
8DD 8FF 8BBJ	.	.
=257	=257	=257
8EE- 8GG 8BBL	(8cL	.
8EE- 8GG 8BB	16e-L	.
.	16dJJ	.
8EE- 8GG 8C	8r	.
8EE- 8GG 8CJ	8c')	.
8FF 8AA- 8CL	(16aa-LL	.
.	16gg	.
8FF 8AA- 8C	16ff	.
.	16ee-JJ	.
8FF 8AA- 8D	4dd')	.
8FF 8AA- 8DJ	.	.
=258	=258	=258
8GG 8BB- 8DL	(8eL	.
8GG 8BB- 8D	16gL	.
.	16fJJ	.
8GG 8BB- 8E	8e')	.
8GG 8BB- 8EJ	8r	.
8AA- 8C 8EL	(16cccLL	.
.	16bb-	.
8AA- 8C 8E	16aa-	.
.	16ggJJ	.
8AA- 8C 8F	4ff')	.
8AA- 8C 8FJ	.	.
=259	=259	=259
8AA 8C 8F#L	(16eee-LL	ff
.	16ddd	.
8AA 8C 8F#	16ccc	.
.	16bbJJ	.
8AA 8C 8F#	4ccc')	.
8AA 8C 8F#J	.	.
8AA 8C 8F#L	(16ee-LL	.
.	16dd	.
8AA 8C 8F#	16cc	.
.	16bJJ	.
8AA 8C 8F#	4cc')	.
8AA 8C 8F#J	.	.
=260	=260	=260
8AA- 8C 8F#L	(16e-LL	.
.	16d	.
8AA- 8C 8F#	16c	.
.	16BJJ	.
8AA- 8C 8F#	4c')	.
8AA- 8C 8F#J	.	.
8AA- 8C 8E-L	(16ee-LL	.
.	16dd	.
8AA- 8C 8E-	16cc	.
.	16bJJ	.
8AA- 8C	16ccLL	.
.	16dd	.
8AA- 8CJ	16ee-	.
.	16ff#JJ)	.
=261	=261	=261
8GG 8BB	8gg	.
8r	8g 8ggL	.
4r	8g 8gg	.
.	8g 8ggJ	.
2r	8g 8ggL	.
.	8g 8gg	.
.	8g 8gg	.
.	8g 8ggJ	.
=262	=262	=262
1r	8g 8b- 8cc# 8ggL	.
.	8g 8b- 8cc# 8gg	.
.	8g 8b- 8cc# 8gg	.
.	8g 8b- 8cc# 8ggJ	.
.	8g 8b- 8cc# 8ggL	.
.	8g 8b- 8cc# 8gg	.
.	8g 8b- 8cc# 8gg	.
.	8g 8b- 8cc# 8ggJ	.
=263	=263	=263
8BB 8DL	8g 8b 8dd 8gg	pp
8BB 8D	4gg (4ggg	.
8BB 8D	.	.
8BB 8DJ	4ff 4fff	.
8BB 8DL	.	.
8BB 8D	4ee 4eee	.
8BB 8D	.	.
8BB 8DJ	[8dd [8ddd	.
=264	=264	=264
8BB 8DL	8dd] 8ddd]	.
8BB 8D	4cc 4ccc	.
8BB 8D	.	.
8BB 8DJ	4b 4bb	.
8BB 8DL	.	.
8BB 8D	4a 4aa	.
8C# 8E	.	.
8C# 8EJ	8g 8gg)	.
=265	=265	=265
*^	*	*
(4.F	[2D	16f 16ffLL	.
.	.	16d	.
.	.	16e	.
.	.	16fJJ	.
.	.	16gLL	.
.	.	16a	.
16ALL	.	16b	.
16GJJ	.	16cc#JJ	.
8F')	8D]	16ddLL	.
.	.	16f	.
8r	8r	16g	.
.	.	16aJJ	.
4r	4r	16bLL	.
.	.	16cc#	.
.	.	16dd	.
.	.	16eeJJ	.
*v	*v	*	*
*clefG2	*	*
=266	=266	=266
([4a^	16ffLL	.
.	16dd	.
.	16ee	.
.	16ffJJ	.
16aLL]	16ggLL	.
16g	16aa	.
16f	16bb	.
16eJJ	16ccc#JJ	.
4d')	16dddLL	.
.	16ccc#	.
.	16ddd	.
.	16eeeJJ	.
4r	16fffLL	.
.	16ccc#	.
.	16ddd	.
.	16eeeJJ	.
*clefF4	*	*
=267	=267	=267
8AA 8CL	(8fff	pp
8AA 8C	4ff 4fff	.
8AA 8C	.	.
8AA 8CJ	4ee 4eee	.
8AA 8CL	.	.
8AA 8C	4dd 4ddd	.
8AA 8C	.	.
8AA 8CJ	[8cc [8ccc	.
=268	=268	=268
8AA 8CL	8cc] 8ccc]	.
8AA 8C	4b 4bb	.
8AA 8C	.	.
8AA 8CJ	4a 4aa	.
8AA 8CL	.	.
8AA 8C	4g 4gg	.
8BB 8D	.	.
8BB 8DJ	8f 8ff)	.
=269	=269	=269
(2C	16e 16eeLL	.
.	16e	.
.	16f	.
.	16gJJ	.
.	16aLL	.
.	16b	.
.	16cc	.
.	16ddJJ	.
16GLL	16eeLL	.
16FJJ)	16a	.
8r	16b	.
.	16ccJJ	.
4r	16ddLL	.
.	16ee	.
.	16ff#	.
.	16gg#JJ	.
=270	=270	=270
([4e)	16aaLL	.
.	16ee	.
.	16ff#	.
.	16gg#JJ	.
16eLL]	16aaLL	.
16d	16bb	.
16c	16ccc	.
16BJJ	16dddJJ	.
4A')	16eeeLL	.
.	16ddd	.
.	16ccc	.
.	16bbJJ	.
4r	16aaLL	.
.	16bb	.
.	16ccc	.
.	16aaJJ	.
=271	=271	=271
*^	*	*
(4.F	[2D	16r	.
.	.	16fLL	.
.	.	16g	.
.	.	16aJJ	.
.	.	16bLL	.
.	.	16cc	.
16ALL	.	16dd	.
16GJJ	.	16eeJJ	.
8F')	8D]	16ffLL	.
.	.	16b	.
8r	8r	16cc	.
.	.	16ddJJ	.
4r	4r	16eeLL	.
.	.	16ff	.
.	.	16gg	.
.	.	16aaJJ	.
*v	*v	*	*
=272	=272	=272
([4f^	16bbLL	.
.	16ff	.
.	16gg	.
.	16aaJJ	.
16fLL]	16bbLL	.
16e	16ccc	.
16d	16ddd	.
16cJJ	16eeeJJ	.
4r	16fffLL	.
.	16eee	.
.	16ddd	.
.	16cccJJ	.
4B')	16bbLL	.
.	16ccc	.
.	16ddd	.
.	16bbJJ	.
=273	=273	=273
([4g^)	16r	.
.	16ggLL	.
.	16aa	.
.	16bbJJ	.
16gLL]	16cccLL	.
16f	16ddd	.
16e	16eee	.
16dJJ	16fffJJ	.
4c#')	16gggLL	.
.	16fff	.
.	16eee	.
.	16dddJJ	.
4r	16ccc#LL	.
.	16ddd	.
.	16eee	.
.	16ccc#JJ	.
*clefG2	*	*
=274	=274	=274
4a)	16r	.
.	16cc#LL	f
.	16dd	.
.	16eeJJ	.
16gLL	16ffLL	.
16f	16gg	.
16e	16aa	.
16dJJ	[16ffJJ	.
4b)	16ffLL]	.
.	16dd#	.
.	16ee	.
.	16ff#JJ	.
16aLL	16ggLL	.
16g	16aa	.
16f	16bb	.
16eJJ	[16ggJJ	.
=275	=275	=275
4cc)	16ggLL]	.
.	16ee	.
.	16ff	.
.	16ggJJ	.
16bLL	16aaLL	.
16a	16bb	.
16g	16ccc	.
16fJJ	[16aaJJ	.
4dd)	16aaLL]	.
.	16ff#	.
.	16gg	.
.	16aaJJ	.
16ccLL	16bbLL	.
16b	16ccc	.
16a	16ddd	.
16gJJ	[16bbJJ	.
=276	=276	=276
4ee)	16bbLL]	.
.	16gg#	.
.	16aa	.
.	16bbJJ	.
16ddLL	16cccLL	.
16cc	16ddd	.
16b	16eee	.
16aJJ	[16cccJJ	.
4ff)	16cccLL]	.
.	16aa#	.
.	16bb	.
.	16cccJJ	.
16eeLL	16dddLL	.
16dd	16eee	.
16cc	16fff	.
16bJJ	16dddJJ	.
=277	=277	=277
24eLL	8r	.
(24cc	.	.
24eeJJ)	.	.
8r	(24ggLL	ff
.	24ccc	.
.	24gggJJ)	.
24eLL	8r	.
(24cc	.	.
24eeJJ)	.	.
8r	(24ggLL	.
.	24ccc	.
.	24gggJJ)	.
24eLL	8r	.
24cc	.	.
24eeJJ	.	.
8r	(24gg#LL	.
.	24ccc	.
.	24ggg#JJ)	.
24eLL	8r	.
24cc	.	.
24eeJJ	.	.
8r	(24gg#LL	.
.	24ccc	.
.	24ggg#JJ)	.
=278	=278	=278
4f 4cc 4ff	16aaLL	.
.	16aaa	.
.	16ggg	.
.	16fffJJ	.
4r	16eeeLL	.
.	16ddd	.
.	16ccc	.
.	16bbJJ	.
2r	16aaLL	.
.	16gg	.
.	16ff	.
.	16eeJJ	.
.	16ddLL	.
.	16cc	.
.	16b	.
.	16aJJ	.
*clefF4	*	*
=279	=279	=279
4r	16g#LL	.
.	16a	.
.	16g	.
.	16fJJ	.
[4FFF	16eLL	.
.	16d	.
.	16c	.
.	16BJJ	.
*	*clefF4	*clefF4
16FFFLL]	16ALL	.
16GGG	16G	.
16AAA	16F	.
16BBBJJ	16EJJ	.
16CCLL	16DLL	.
16DD	16C	.
16EE	16BB	.
16FFJJ	16AAJJ	.
=280	=280	=280
4GGG 4CC 4EE	16GGLL	.
.	16C	.
.	16BB	.
.	16DJJ	.
4r	16CLL	.
.	16E	.
.	16D#	.
.	16FJJ	.
2r	16ELL	.
.	16G	.
.	16F#	.
.	16AJJ	.
.	16GLL	.
.	16c	.
.	16B	.
.	16dJJ	.
*	*clefG2	*clefG2
=281	=281	=281
1r	16cLL	.
.	16e	.
.	16d#	.
.	16fJJ	.
.	16eLL	.
.	16g	.
.	16f#	.
.	16aJJ	.
.	16gLL	.
.	16cc	.
.	16b	.
.	16ddJJ	.
.	16ccLL	.
.	16ee	.
.	16dd#	.
.	16ffJJ	.
*clefG2	*	*
=282	=282	=282
4r	(16eeLL	f
.	16gg	.
.	16ff#	.
.	16aaJJ)	.
16r	16gg'LL	.
(16eeLL	(16ccc	.
16dd#	16bb	.
16eeJJ)	16cccJJ)	.
16g'LL	16gg'LL	.
(16cc	(16eee	.
16b	16ddd#	.
16ccJJ)	16eeeJJ)	.
16g'LL	16gg'LL	.
(16ee	(16ccc	.
16dd#	16bb	.
16eeJJ)	16cccJJ)	.
=283	=283	=283
16g'LL	16gg'LL	.
(16cc	(16eee	.
16b	16ddd#	.
16ccJJ)	16eeeJJ)	.
16g'LL	16gg'LL	.
(16ee	(16ccc	.
16dd#	16bb	.
16eeJJ)	16cccJJ)	.
16g'LL	16gg'LL	.
(16cc	(16eee	.
16b	16ddd#	.
16ccJJ)	16eeeJJ)	.
16g'LL	16gg'LL	.
(16ee	(16ccc	.
16dd#	16bb	.
16eeJJ)	16cccJJ)	.
=284	=284	=284
1g; 1dd; 1ff;	1bb; 1fff;	.
*clefF4	*	*
=285	=285	=285
1G; 1d; 1f;	1b; 1ff;	.
=286	=286	=286
(2CC 2C	2G 2c (2e	.
4GGG# 4GG#	4F 4B 4d	.
4AAA 4AA	4E 4A 4c	.
=287	=287	=287
2EE 2D	2G# 2B	.
2FF) 2C	2A)	.
=288	=288	=288
(2D 2F 2G 2B	2f 2g (2b	.
4E 4G 4c	4g 4cc	.
4F 4A 4c 4d	4a 4cc 4dd	.
=289	=289	=289
*^	*^	*
2c 2e	1G)	2r	2g 2cc 2ee	.
2B 2d	.	4dd	2g	.
.	.	8ggL	.	.
.	.	8ffJ)	.	.
*v	*v	*	*	*
*clefG2	*	*	*
*	*v	*v	*
=290	=290	=290
2cc (2ee	4r	.
.	4ff 4bb 4ddd	.
4g# 4b 4dd	4ccc (4eee	p
4a 4cc	4ee 4aa 4ccc	.
=291	=291	=291
2e 2g# 2b	2dd 2gg# 2bb	.
2f 2a)	2cc 2aa	.
=292	=292	=292
*^	*^	*
4c (4e	1G	2gg	4cc 4ee	.
2.d; 2.f;)	.	.	[2dd [2ff	.
.	.	4aa	.	.
.	.	4bb;)	4dd] 4ff]	.
*v	*v	*	*	*
*clefF4	*	*	*
=293	=293	=293	=293
*^	*	*	*
4C (4E	[1GG	1g'	4c (4e	.
[2.D [2.F)	.	.	[2.d [2.f)	.
*v	*v	*	*	*
=294	=294	=294	=294
1GG;] 1D;] 1F;]	2a-	2d_ 2f_	.
.	2b;	2d] 2f]	p
*	*v	*v	*
*	*clefF4	*clefF4
=295	=295	=295
*^	*^	*
4CC (4EE	[1GGG	(1G'	4C 4E	.
[2.DD [2.FF)	.	.	[2.D [2.F	.
*v	*v	*	*	*
*	*v	*v	*
=296	=296	=296
1GGG;] 1DD;] 1FF;]	2D_ 2F_ 2A	.
.	2D;] 2F;] 2B;)	.
=297	=297	=297
8CC 8C	8E 8c	pp
*	*clefG2	*clefG2
8C 8GL	8c 8eL	.
8C 8G	8c 8e	.
8C 8GJ	8c 8eJ	.
8C 8GL	8c 8eL	.
8C 8G	8c 8e	.
8C 8G	8c 8e	.
8C 8GJ	8c 8eJ	.
=298	=298	=298
8C 8GL	8c 8eL	.
8C 8G	8c 8e	.
8C 8G	8c 8e	.
8C 8GJ	8c 8eJ	.
8C 8GL	8c 8eL	.
8C 8G	8c 8e	.
8C 8A	8d 8f#	.
8C 8AJ	8d 8f#J	.
=299	=299	=299
8BB 8D 8GL	(8gL	.
8BB 8D 8G	16bL	.
.	16aJJ	.
8BB 8D 8G	8g')	.
8BB 8D 8GJ	8r	.
8BB- 8C 8GL	(8ccL	.
8BB- 8C 8G	16eeL	.
.	16ddJJ	.
8BB- 8C 8G	8cc')	.
8BB- 8C 8GJ	8r	.
=300	=300	=300
8AA 8C 8FL	(8ffL	f
8AA 8C 8F	16aaL	.
.	16ggJJ	.
8AA 8C 8F	8ff')	.
8AA 8C 8FJ	8r	.
8AA- 8C 8FL	16fffLL	.
.	16eee	.
8AAA- 8AA-	16fff	.
.	16eeeJJ	.
8AAA- 8AA-	16fffLL	.
.	16eee	.
8AAA- 8AA-J	16fff	.
.	16eeeJJ	.
=301	=301	=301
16GGG 16GGLL	16fffLL	ff
16AAA	16eee	.
16BBB	16ddd	.
16CCJJ	16cccJJ	.
16DDLL	16bbLL	.
16EE	16aa	.
16FF	16gg	.
16GGJJ	16ffJJ	.
16AALL	16eeLL	.
16BB	16dd	.
16C	16cc	.
16DJJ	16bJJ	.
16ELL	16aLL	.
16F	16g	.
16G	16f	.
16AJJ	16eJJ	.
=302	=302	=302
4FF' 4F'	4d'	.
4GG' 4BB' 4D' 4G'	4g' 4b' 4dd' 4gg'	.
2r	2r	.
=303	=303	=303
4C' 4E' 4G' 4c'	4e' 4g' 4cc' 4ee'	ff
4r	4r	.
4GG' 4BB' 4D' 4G'	4g' 4b' 4dd' 4gg'	.
4r	4r	.
=304	=304	=304
4CC' 4EE' 4GG' 4C'	4cc' 4ee' 4gg' 4ccc'	.
4r	4r	.
2r	2r	.
==	==	==
*-	*-	*-
!!!verovio: beamFrenchStyle
!!!ENC: Craig Stuart Sapp
!!!END: 2004/04/04/
!!!LOR: Durand 1915, plates 9327/9328, Paul Dukas, ed.
!!!PED: Dukas, Paul
!!!URL-vhv: https://verovio.humdrum.org/?file=beethoven/sonatas/sonata21-1.krn
!!!URL-pdf: https://github.com/craigsapp/beethoven-piano-sonatas/blob/master/reference-edition/sonata21-1.pdf
!!!ONB: Not proof-read; some note/rest encoding errors from SharpEye
!!!ONB: Grace notes not encoded (but present in original MusicXML file).
!!!EEV: 2014/07/13/ (added ottavas)
